ricodejong-tudelft/SmartRoboticsDelft/Machine_learning_trial_2/all_measurements_summary.csv
zero_offset,expected_weight,value,force_vector.Mx,force_vector.My,force_vector.Fz,robot_tcp.velocity_linear.Vx,robot_tcp.velocity_linear.Vy,robot_tcp.velocity_linear.Vz,robot_tcp.velocity_angular.Wx,robot_tcp.velocity_angular.Wy,robot_tcp.velocity_angular.Wz,robot_tcp.joint_angles.base,robot_tcp.joint_angles.shoulder,robot_tcp.joint_angles.elbow,robot_tcp.joint_angles.wrist_1,robot_tcp.joint_angles.wrist_2,robot_tcp.joint_angles.wrist_3,robot_tcp.flange.tx,robot_tcp.flange.ty,robot_tcp.flange.tz,robot_tcp.flange.qw,robot_tcp.flange.qx,robot_tcp.flange.qy,robot_tcp.flange.qz
-0.1115344129554656,0.1049999967217445,-0.0335081632653061,0.546469387755102,-0.0102489795918367,13.246938775510204,0.668387952717306,0.1675221935335146,1.0214953497615478,-0.0431961516552732,-0.0119057987709933,-0.00118998563126,0.7605610920458424,-0.962289672918704,-4.686259244412792,-2.190105927837784,4.691435813903809,-1.9226996940767709,-0.5326552225010736,-0.7444866213263298,0.2294328833264964,-0.5305632361343928,0.8475111046615912,0.0139325003833414,0.0042239990710204
-0.1069878542510121,0.3179999887943268,0.2176632860040568,0.0092657200811358,0.33552738336714,17.527383367139958,0.2355387148664069,0.0054244800336699,0.9925666403828656,0.0130353062611931,-0.0385202435187411,-0.0002116197142997,0.8060599543743636,-1.27322224557596,-4.05978468030268,-2.5394320333191764,4.707798342675757,-3.6007628786422528,-0.2931132609171993,-0.5592462976612378,0.2054815028338838,0.9888117892505188,-0.1487610621517618,-0.0090883834812691,0.0053047857589218
-0.1134329268292683,0.1539999991655349,0.0262825203252032,0.3947459349593495,-0.0240020325203252,15.817073170731708,0.2175830599676537,-0.0715951828315259,0.9697844320027156,-0.1114483648565707,0.0836498878942219,0.0027155976869494,0.8045312547829093,-1.371443913281098,-4.0239731286599385,-2.4050480027555743,4.692699521537719,-1.83101004177435,-0.2676122768562499,-0.5294072039243651,0.2342843926564707,-0.5104031423485376,0.8594094008449616,0.0177314023759852,0.0209742754194279
-0.1159613821138211,0.2540000081062317,0.1474291497975708,0.5330121457489878,-0.2166417004048582,15.896761133603238,0.580537795538668,0.0052077600932967,0.9844289217286972,0.0148457301581405,0.0325094144563829,-0.0030450845930131,0.6453133654377239,-1.309896188275648,-4.226643535289687,-2.3055317433633267,4.729643472293128,-1.2241298475354383,-0.4237655132767642,-0.540050646795435,0.2751550763423143,-0.1517172733299162,0.9883889215677856,-0.0028189925798818,0.0072123122166819
-0.0148475609756097,0.1650000065565109,0.1402657200811359,0.2820912778904664,0.1678945233265719,15.269776876267748,0.586947201877,0.1523896463430888,0.9369641208221896,0.0522474506880676,0.0347058663849018,-0.0011006884271746,0.8962210708167442,-1.331557551961526,-4.374367427632484,-2.140639461800644,4.7316791803309695,-3.3160158308503944,-0.3089942589371973,-0.6679082738942114,0.3546002000328493,0.9695130819964844,-0.2448895808770255,0.0066592659490784,-3.2414070128781524e-05
-0.0148475609756097,0.1650000065565109,0.1606930894308943,-0.1075772357723577,-0.2752662601626016,16.164634146341463,0.1191464156473497,0.3000750164749558,0.0749358994773204,-0.0173306585329818,0.0054110110345898,-0.000860842791569,0.9346621751300688,-1.9137733406214497,-4.297349477201943,-1.6400706028597434,4.718935027355101,-3.2810776971167317,-0.1441816159228726,-0.48825461835396,0.5974041127819356,0.9695518417813912,-0.2448828371196258,-8.817644804664483e-05,-0.0007211629321044
-0.007578093306288,0.5249999761581421,0.5122206477732794,-0.0559230769230768,0.255417004048583,22.52834008097166,0.1697881521174442,-0.1653206224398133,0.8229745147405612,-0.0258541055733995,0.0047194336904607,-0.0010184208761304,0.5815611734443348,-1.33941595888172,-3.858006753419575,-2.643724091418838,4.701156062153187,-3.9251657283848673,-0.3229746392019365,-0.4237095074735672,0.1736338086848558,0.9950409404903288,-0.0990163071254487,-0.0001601564744754,-0.0092134386695061
-0.0152474226804123,0.3039999902248382,0.3251720647773279,0.0575121457489878,-0.5587307692307693,16.682186234817813,0.405737864743094,0.1170810855876216,0.9890384601539652,-0.1054414256261962,-0.0322972171153328,0.0003810059453624,0.8901772090056648,-1.313799205994998,-4.159831152271162,-2.3669988716073327,4.680897330465587,-0.6154130401507159,-0.2679701054446127,-0.6037079847534659,0.2511611732876735,0.0292467127633299,0.9993588956985396,0.015032946445078,-0.0102281928277359
-0.0268577981651376,0.090999998152256,0.0682206477732793,0.0415202429149797,-0.02632995951417,16.7165991902834,-4.536402995276125e-05,-1.985416401303864e-05,-4.524337667412878e-05,-2.1004224385305866e-05,-1.766802326083323e-05,3.18261594447843e-05,0.9239055140298388,-1.9968287001631,-4.179908615374854,-1.6759537504645938,4.7196860564382455,-3.2125408416443104,-0.1226914785802364,-0.4517814012674185,0.5606718871757569,0.9590982952822558,-0.283073249616121,2.0805258155349584e-06,-7.51682148904394e-06
-0.024663967611336,0.3289999961853027,0.309937369519833,0.0658329853862212,-0.2087870563674321,21.16910229645094,0.131572911550802,-0.1909462231148993,0.7346491882987799,-0.0340355692548205,-0.0253956491242746,0.0311635942163284,0.5471159957644834,-1.3589508028880914,-3.766073677883268,-2.736067807657238,4.678052773804157,-1.4950634197416026,-0.3025391282268755,-0.3883520314364941,0.1601654914730775,-0.2372912198367348,0.9712444635920832,0.0164272520177859,-0.0095082789402851
-0.0202418699186991,0.1199999973177909,0.1159010101010101,-0.0763979797979797,-0.0465898989898989,16.505050505050505,0.1674286319104735,0.0641915701999334,0.8587599145895922,0.0111336621140535,-0.0309549258942819,-0.0001253648547548,0.8732129889305191,-1.646431844353493,-3.944824341090039,-2.28651938060903,4.704033088684082,-1.2161156533891797,-0.1838273032145066,-0.4892959118491471,0.3286942368203943,-0.2589762449866593,0.9657777673066263,-0.0014318755897222,-0.0140180835472137
-0.0133006263048016,0.3499999940395355,0.0161117886178861,-0.0755447154471544,0.4464146341463414,14.229674796747968,0.6103737457183736,0.1695179965187838,1.0162830175119844,0.0744381862649266,0.0442435506894028,0.0002940887488357,0.7085100172496424,-1.037103418337394,-4.572656558781135,-2.231241963457121,4.758588765694843,-3.42152622278586,-0.5265624689740863,-0.6879206280398175,0.2382556317843557,0.9585123798711512,-0.2842221383035667,0.0195545790304346,0.0058904680471109
-0.0322388663967611,0.1679999977350235,0.1487854251012145,-0.0003603238866396,-0.2401396761133603,16.981781376518217,0.2546538746235957,-0.0628791297166057,0.9080409725395072,-0.0262862300901418,0.0245891197314629,0.0011505456918135,0.9770814800552028,-1.4087423409042534,-3.9930161382505287,-2.4298548430942777,4.715737416194036,-1.027648692054988,-0.1628582292511637,-0.5583891370277173,0.2441852768423103,-0.2184278764403783,0.9757954285212374,0.0074674116602159,0.0070419471474319
-0.0264197530864197,0.1330000013113021,0.1137505070993915,-0.33226369168357,-0.1677809330628803,16.385395537525355,0.1392825669939258,0.1498325303588184,0.0296834757726464,-0.0032669669003076,0.0102038799807557,-0.0001701875013673,0.9190024948748808,-1.950320824161662,-4.115718739995125,-1.7863354866663417,4.719906700552114,-2.0154875637579504,-0.1325292700776947,-0.4615380439990432,0.509136658169435,-0.6312631248944188,0.7755686788239778,-8.427411525290191e-05,0.0001598656540502
-0.0291869918699187,0.3179999887943268,0.301419028340081,0.7390202429149797,-0.1013340080971659,16.402834008097166,0.5388154735174036,0.1840688644427887,1.030907544093229,-0.0362206482098068,0.0251007467141333,0.0001244573588892,0.800077820113796,-1.129805018964168,-4.392993264835373,-2.308532398518276,4.711792030797796,-1.7334421673875184,-0.4060342104328788,-0.668512986859812,0.2257168836409022,-0.4657948896711172,0.8848198359070519,0.0057358066485402,0.0090221834302076
-0.0291869918699187,0.3179999887943268,0.3058969696969696,-0.6307272727272727,-0.0405252525252525,17.404040404040405,0.2499397218568798,0.2251817117588998,0.0642876670199967,-0.0142333400901707,0.009003263845868,4.417852497867688e-05,0.9089910722742176,-1.9098078868182773,-4.1077595633689805,-1.834294196409244,4.719332745099308,-1.627925194147409,-0.146299626926581,-0.4717565309519719,0.4899196858959969,-0.4658221636155639,0.8848781234086162,0.0002111098790417,0.0003023403209589
-0.0199233954451345,0.2140000015497207,0.1654048582995951,-0.2234412955465587,0.6093967611336033,15.925101214574898,0.7628017494547236,-0.0262833908071562,0.9574642446308712,-0.0320663177223477,-0.0084079656163125,0.0010278722939007,0.593800401820345,-1.0685486081697804,-4.615526055517467,-2.165666047657063,4.698460816371779,-3.828152718680309,-0.6141488794011143,-0.6228443522926285,0.2818402836951408,0.9898436036911088,-0.1418077485402103,-0.0052713995727782,-0.0081006273229489
-0.0277058823529411,0.3310000002384186,0.3127200811359026,0.3401926977687627,-0.4664766734279919,18.0,0.5350934900460647,-0.1166448060080058,0.960898087483357,-0.0988185784821555,-0.0325699542030564,0.0016774887058709,0.6309714580887955,-1.3085383638468555,-4.128798450949709,-2.417199713218442,4.674026816176594,-0.9155620350826932,-0.404159925409553,-0.5077005080712494,0.2395764877509635,0.0088427345406332,0.9997090034746012,0.0160920294910824,-0.0127452871522301
-0.0296876267748478,0.2339999973773956,0.149576923076923,0.5131538461538462,0.3932064777327935,15.002024291497976,0.7330104568664381,0.2250377291453273,0.9475662809548576,0.0669059242022866,0.0494684003411437,8.579645649377878e-06,0.758494609642608,-1.0549550209447562,-4.633481393458872,-2.16297780481813,4.76252649187559,-2.612137528432244,-0.5051689104512636,-0.7258690593213688,0.2774537630711007,0.7848413333236447,-0.6192862731725098,0.021403865637974,0.0026679940248117
-0.0515723014256619,0.8009999990463257,0.7620750507099391,0.1678296146044625,-0.2917079107505071,22.616632860040568,0.2520463548110407,0.0016725753920754,0.8354859295703336,-0.0155357065991867,0.005906567318455,-0.0017117188471595,0.5804725166024833,-1.5101406869268663,-3.91188619054597,-2.3970268783384725,4.68960688225396,-0.9145159443086212,-0.3251897175220157,-0.4193158308705258,0.2503360674903552,0.0345458770529735,0.999167927138462,0.0209158543217738,0.0056308215544474
-0.0440691056910569,0.4939999878406524,0.4181619433198381,0.246665991902834,-0.0282773279352226,19.331983805668017,0.2573318302368795,-0.0035582775212774,0.9185282308824384,0.0305187238225668,0.0610633199863978,0.0016941087912579,0.872023690205354,-1.4410640782116335,-4.0763008888916445,-2.3217197403627816,4.753047374578623,-2.1952317575319653,-0.236772961371582,-0.5629615136968945,0.2915989727928088,-0.6822977908227125,0.7308235748818046,-0.0163223737141924,0.0085251512447077
-0.0390546558704453,0.2339999973773956,0.1977226720647773,-0.1261781376518218,0.1283663967611336,19.67004048582996,0.1891575419229278,-0.2631862841020136,0.7377878702768115,0.0407537780376523,0.0148754204084573,5.758184852480034e-06,0.44518973078081,-1.2655047511914916,-3.800272746124731,-2.7826472962809925,4.758066640691719,-3.2474198393119087,-0.3529000683472706,-0.3743981373937506,0.1318159183328933,0.8744199797209458,-0.4846949357735483,0.0183751949859473,0.0106425906818073
-0.0388995726495726,0.1049999967217445,0.0378486707566462,0.4194826175869121,0.3747852760736196,14.862985685071576,0.7733734471261178,-0.0123051229672367,0.9451935662852232,0.0499052610825806,0.0335170307595688,-0.0006468427757024,0.5773171386348201,-1.1224111825399143,-4.583478504407138,-2.132327603249053,4.740395083749221,-2.504590948856288,-0.6017163443419099,-0.6030565363741603,0.3059704652958852,-0.6875802366280117,0.7259807954780407,-0.0116681937549209,0.0048619931371375
-0.0353855670103092,0.3219999969005584,0.2643272727272728,0.6131070707070707,-0.1322282828282828,14.6989898989899,0.6885478405778909,0.3999706543914247,0.9749159851032284,0.0662234120369607,-0.0094749385855158,0.1089990951396033,0.7299843037971342,-1.1660608032728392,-4.458897512609308,-2.25287918666982,4.738587367895878,-1.2811444412525548,-0.4677931175689505,-0.6547237694865525,0.2753307707231454,-0.2223071436990391,0.97479345678079,-0.0146130864668374,-0.0058300336138486
-0.0422226720647773,0.1220000013709068,0.0752793522267206,-0.3436356275303643,0.4309412955465587,14.111336032388664,0.5357204607734183,0.3856827855619759,0.1586457052951763,0.050114693463853,-0.0354452341380499,-0.0014146435156193,0.871885829850247,-1.864486395346236,-4.451340758366141,-1.5428478446035216,4.721280315144342,-0.6559905628069288,-0.191925444161361,-0.4971635114205511,0.6651520189727366,0.0207945807018743,0.9997723915798944,-0.0023130668918107,-0.0011419082909501
-0.033127659574468,0.209999993443489,0.1905991902834008,-0.0227914979757085,-0.178244939271255,18.813765182186238,0.051071818067646,-0.0978441354500382,0.8380333482624023,-0.013496267026406,-0.0529278765645552,0.0006523136313267,0.7996906404070526,-1.2527135009671533,-3.84725857842789,-2.776618351616837,4.67887083335444,-1.6184676425767892,-0.2321850402273147,-0.4861934640508914,0.1413561643406688,-0.41431519027181,0.909870880456106,0.0124156099719632,-0.0174518664507006
-0.028997975708502,0.4339999854564667,0.4148060606060606,0.2952646464646463,0.1491232323232323,19.462626262626262,0.2011410150845653,-0.0447412446405998,0.9296086831851288,0.0237333056213831,0.0797721326698554,0.0010841335167501,0.8802322716423959,-1.3839491135267508,-4.021843559573395,-2.422284516980989,4.740348509586219,-2.986796998490739,-0.2239630601622841,-0.5537383106019762,0.2433849260813058,0.9130907177925108,-0.4073755718842901,0.0138415067762399,-0.0083001872073068
-0.0296983805668016,0.1180000007152557,0.099997975708502,0.4163927125506072,-0.1235627530364372,15.724696356275304,0.5593754090618918,-0.0520026480185159,0.9649364461249608,0.0340344262163361,0.0301264840103144,-0.0015712671011356,0.615907131720651,-1.315462290165922,-4.153881305625082,-2.377819026808986,4.736008855495376,-1.2571905835545576,-0.4140616791089054,-0.511013455236489,0.2506125730270075,-0.1536661759923827,0.9880712490815384,-0.0069989704445422,0.0062389131774466
-0.0287044534412955,0.449999988079071,0.4791999999999999,0.4605838383838384,-0.2433212121212122,20.765656565656567,0.3734430674584924,-0.1694137958361251,0.8943014908698323,0.037169083105333,0.0118858255143122,-0.0014547232732925,0.5155473031780936,-1.307988731933784,-4.002092987599999,-2.54393067271404,4.737932300567627,-1.032828091606497,-0.408908930631599,-0.4391529402347526,0.1991880571300333,0.0077304850661694,0.999911492641526,-0.009355155209719,0.0044807484674483
-0.0130795918367346,0.1430000066757202,0.1400669371196754,-0.0440567951318458,-0.3076186612576065,16.13995943204868,0.1022414931725428,0.1811845788679288,0.0542746844170942,-0.0126656487838313,-0.0058954272586435,-0.0007487613840904,0.9275003028447923,-1.9362019534980677,-4.110771275920752,-1.8054993641032293,4.718751803856592,-3.195532390822635,-0.1322815341017309,-0.4666616740744206,0.5017418448509116,0.9573030249342231,-0.2890855847096588,-0.0002626086701281,-0.0001823440447491
0.0025650406504065,0.1430000066757202,0.1019675456389452,0.05920892494929,0.5722312373225152,14.427991886409735,0.6533481075601937,0.2148615789174418,1.028046445437504,-0.0666305564858906,-0.0603841563076874,-0.0001035395840552,0.81355392122849,-1.0161564306787516,-4.616462794568911,-2.220848520674437,4.667393802387477,-3.5816607574206447,-0.4729209746598714,-0.7467626914774912,0.2416910433775271,0.9876074475400588,-0.1548482479478476,-0.0203399089038462,-0.0136680349086092
-0.0055571725571725,0.1759999990463256,0.164327935222672,0.3713238866396762,-0.5391538461538461,16.380566801619434,0.3435020669046913,0.3437931989823333,0.061468364511513,0.0008801732566779,0.0083136609396102,-0.0006224381800756,0.9039236659463118,-1.8830634823846664,-4.194990907120801,-1.7746031972454588,4.720152102018657,-3.822341364753592,-0.1622195406270171,-0.4876535254934056,0.5264540362937248,0.9999655515317492,0.0082870546411647,0.0001896392113528,0.0001310311477311
-0.0073427331887201,0.1190000027418136,0.1216234817813765,0.2230283400809716,-0.1183259109311741,17.63157894736842,0.1962235926867348,-0.1031721277234314,0.903023642334512,0.0039545312384445,0.0236532599087741,0.000392755437914,0.7098281541575304,-1.3580397789158702,-3.927663964298573,-2.55617894459253,4.724642102052326,-1.2755463730094,-0.2864171930170252,-0.4818801903410962,0.2023082016118866,-0.2091484922267164,0.977859728852747,-0.0009986291563978,0.0064997407800974
-0.0126954732510288,0.3499999940395355,0.3366247464503042,0.4120973630831642,0.0748296146044624,17.40973630831643,0.0702920868735293,0.033042483730069,0.9782377406359078,-0.0660822707453016,-0.0248275259228344,0.0003010310420285,0.9012174807020424,-1.456759017969275,-4.043332215496783,-2.339595234657072,4.694182169606672,-1.9888673972192552,-0.2162643350645688,-0.550747871157122,0.2887151286338454,-0.6152229801152831,0.7882248324022816,0.012379666772892,0.0033404880762241
-0.0178392857142857,0.0630000010132789,0.0501234817813765,0.0284878542510121,-0.017414979757085,16.331983805668017,-8.171367502155953e-05,-0.0001307665013542,-0.0002581904043465,0.0001939676785625,-0.0001468384935037,-8.869963121888288e-05,0.9239555108643736,-1.9953957813365213,-4.167844237586265,-1.6894931081711966,4.719675344976819,-3.210837357788634,-0.1226196814373678,-0.4517209795322495,0.5533750989900427,0.9588760324576606,-0.2838251999153299,-7.230751214954834e-06,8.170318325873634e-06
-0.0055278396436525,0.0719999969005584,0.0634320486815415,0.0398559837728194,-0.0224705882352941,16.55578093306288,0.0001288313433051,9.268198107645893e-05,-0.0001091609345223,8.209492933644197e-05,-6.141805244564437e-05,3.851861178203472e-06,0.9227848744537476,-1.9756521395175624,-4.532820085482955,-1.344255091410406,4.719576637353182,-1.3449220911028767,-0.1237865128152027,-0.4524633868108172,0.7542092308069581,-0.3414390076851022,0.9399039329428218,-1.4800920501919407e-05,-7.731956692829874e-06
-0.0041623931623931,0.2770000100135803,0.2580769230769231,0.5789534412955465,0.510006072874494,16.38259109311741,0.7547629338736694,-0.0103283621304778,0.9525018150087908,-0.0743038153871031,-0.0002164927595864,0.000783910157527,0.6257994051283671,-1.0469764701113893,-4.5629865978410855,-2.23984582731984,4.686804354432141,-2.667414559875141,-0.5826615430565498,-0.6327837901076807,0.240613726816076,0.7605705296221049,-0.6490546590403506,-0.0139515373982142,-0.0048124887819241
-0.0031555555555555,0.3970000147819519,0.3847749469214437,-0.2350424628450106,0.3895753715498938,18.008492569002122,0.1690545833432684,0.2103672376915527,0.0798621425548777,-0.0002390196466324,0.015031057174538,-0.0012326637113046,0.9158354516748156,-1.9368667972782232,-4.185332472410424,-1.729952665975987,4.72049459935247,-0.9533107268529796,-0.141803230323103,-0.4710511236813418,0.5435606676555237,-0.1497940493870186,0.988716921735468,-9.132443529545616e-05,0.0004012280328267
0.0039238900634249,0.2820000052452087,0.2969290060851927,0.2039026369168357,-0.1522718052738336,18.855983772819474,0.1844277720535353,-0.0980085572607729,0.893970827320348,0.0177681951676604,-0.0073153775623528,0.0016414676336251,0.9345458334889906,-1.4215053036993166,-3.957177176195033,-2.485368727667494,4.720674969361713,-2.520180491093338,-0.1775670203306612,-0.540841230877031,0.2446276947372341,0.8106408440800758,-0.5855125222680051,0.0016751897235119,0.0055716068259087
0.025020366598778,0.3109999895095825,0.3182900608519269,0.2884056795131846,0.0339391480730223,18.06490872210953,0.3514012713995303,0.0349421738861061,0.9541845424816588,0.0394233711654501,0.0167681712550718,0.0010307921798949,0.8493461718907462,-1.3969863733476426,-4.136349853105526,-2.32784927688981,4.740007056184037,-2.561097375014622,-0.2730494392752405,-0.5811711646480444,0.2944421824407868,0.7972978068171843,-0.6034652893006439,0.0104480758474659,0.0049880696918709
0.019787018255578,0.1770000010728836,0.2107505070993915,0.0475334685598377,-0.1563630831643002,17.88235294117647,0.1836228983032924,-0.0720106649791261,0.907246290970782,0.02458965516956,0.0373122761503972,0.001229905842987,0.8967062049898608,-1.4152865865004558,-3.983660922814576,-2.448291297855448,4.742112421844358,-1.1155621770699038,-0.2026699311713901,-0.5430406228040343,0.2477159823232441,-0.2220535408592127,0.9749491229260429,-0.0079130179255362,0.0096369271523661
0.0241656565656565,0.1770000010728836,0.1987105263157894,0.0908360323886639,0.1613603238866396,18.90283400809717,0.2478253278799754,-0.1887244399238776,0.8502362731516926,-0.0307925652569858,-0.0141617337013782,-0.0001062904129153,0.5216906696316684,-1.282106841011228,-3.909462609271772,-2.667916976767509,4.708425715867325,-2.8720475877935665,-0.3743148053947248,-0.4201145809792314,0.1629576786809604,0.7926451947524963,-0.6096560202146831,-0.0044052506985903,0.0015789618800142
0.0217373737373737,0.1790000051259994,0.2070364372469635,-0.0024716599190283,-0.1702914979757085,17.20242914979757,0.4220662817985165,0.0693492588090214,0.8096556794136732,-0.0038502143923132,0.0211788020722315,-0.0004925765811958,1.045294477510066,-1.6519013481353595,-4.058207619045428,-2.124883189654057,4.728911977065237,-1.8745305353438888,-0.1097712346507228,-0.5408035677212936,0.3748867241477194,-0.6263264407995741,0.7794938590603802,-0.0016794834323208,0.0099917718083013
0.0217373737373737,0.1790000051259994,0.2011943319838056,0.1278623481781376,0.1361862348178137,15.70242914979757,-0.2019183756419598,0.1359348386659934,0.2271797282037141,-0.0163093681865856,0.024680701700123,0.000975399157191,1.0081225819433266,-1.940063957539643,-4.367543690600376,-1.5416650213447194,4.721901216970282,-1.9152337605762173,-0.1029240097925972,-0.4859669705634175,0.6513340490067053,-0.6263534742810948,0.7795341279101276,-0.0002615298437131,0.0017996567749485
-0.0023180778032036,0.6489999890327454,0.6190933062880325,0.5237241379310345,-0.0613590263691683,20.53752535496957,0.3090149273881072,-0.0587661731582574,0.9277684097787532,-0.0641498722298401,-0.0013808865160631,-0.000541223425329,0.4847278994551536,-1.4633612470326236,-3.975543102434634,-2.403342101923992,4.694351880110301,-1.226000462998131,-0.393962582335269,-0.4031712215159534,0.2574508332517036,-0.0731132588600532,0.9972349774039542,0.0121150556862029,0.0003696985316088
0.0035,0.0689999982714653,0.0743947368421052,0.0274493927125506,-0.0241983805668016,16.795546558704455,-5.543060557865259e-05,-4.298938555812983e-05,-0.000186919144227,0.0001977190648494,-0.0001496223620299,-8.0043150512562e-05,0.9242514100393304,-1.9742605380094929,-4.070432366629844,-1.807986062826894,4.719553453236939,-1.7799607238897024,-0.1222669545123693,-0.4514865006512475,0.4920099253958536,-0.5380235062195704,0.8429298305559737,8.171692166409346e-06,1.323030020187723e-05
0.0081546391752577,0.3319999873638153,0.3086558704453441,0.4317408906882591,0.6622186234817813,17.11740890688259,0.6587989656260131,0.0177560567205769,1.0126095447411527,-0.0378513174307586,-0.0358683392576753,0.0013341049036084,0.623035954922317,-1.015391293179808,-4.576544363006406,-2.269989944458969,4.685423008343469,-2.8164908035189598,-0.5945260110292357,-0.6389829302847627,0.226627436108314,0.8059471981969439,-0.5917461900575923,-0.0163607960943932,-0.0007119031540208
0.0021858037578288,0.1040000021457672,0.1151135902636917,0.4331014198782961,-0.3685131845841785,14.829614604462474,0.6490432858534626,0.1781789410538284,1.0392195818515946,0.0442945805558334,-0.0070003284865071,0.0007098064847475,0.7325871477987896,-1.0058257505632822,-4.653214478831262,-2.2012859812584784,4.736460991370025,-1.0522253143162426,-0.5381051015418635,-0.722470667855493,0.2527736815006206,-0.1098143672816168,0.9938975840988314,-0.0092924865865683,0.0022481611133935
0.0060947630922693,0.0579999983310699,0.062242914979757,0.0348461538461538,-0.0205870445344129,16.568825910931174,0.0002621125373395,0.0001009274979661,4.1602115403613314e-05,-0.0003753404785498,0.0002126990926602,-1.4100794673095266e-05,0.9245574533456732,-1.9825069492056264,-4.09935181247078,-1.7709075065653297,4.719599744086324,-1.907867776103549,-0.1221567954159217,-0.4515578461441434,0.5107201551377532,-0.5908246107912256,0.8068000455858254,-2.465277321130825e-06,-2.1909740501099156e-05
0.0424623217922606,0.3260000050067901,0.36615991902834,0.1094392712550607,-0.0248137651821862,18.3502024291498,0.3558367801030285,-0.0558960796800594,0.9189373692755024,-0.0554882337137833,0.0583937992273705,-0.0028318485818761,0.5778330761773384,-1.85724138148836,-4.008064371371559,-1.9588756915613887,4.712032815222798,-3.171361057247911,-0.269686016717903,-0.3824682878217234,0.430715635841192,0.8870224739134553,-0.4614656163975295,0.0043416614207082,-0.0133929672143855
0.0481784989858012,0.2060000002384185,0.2611457489878542,0.1971174089068826,0.1126417004048583,17.65991902834008,0.3011779913180918,0.0304656935942348,0.9307416889601388,0.0594885990248263,0.0277307759061663,0.0009737380856793,0.8878910121647453,-1.4366694169101184,-4.095308516189637,-2.3209635992175617,4.741312962311965,-3.235030283195488,-0.2347685806604049,-0.5726239500258133,0.2977528688818337,0.9576663402651968,-0.2876087543573457,0.0102538340211269,0.0044063996555329
0.0481784989858012,0.2060000002384185,0.2636293279022403,-0.090224032586558,-0.1794867617107942,16.582484725050918,0.1096743473515715,0.1929627953799007,0.1092243321435258,-0.0033728081034159,0.0149504853332571,-0.0011835708432062,0.9231302732119978,-1.9434644456431696,-4.231666146373555,-1.6767491327164827,4.720398317286536,-3.2037378415665576,-0.1390065277515021,-0.4726218546602245,0.572563051206274,0.9577429242386596,-0.2876243545178726,0.0003939237445547,-0.0002394837672876
0.0480303643724696,0.0480000004172325,0.1039392712550607,0.04882995951417,-0.0265668016194332,16.997975708502025,-0.0001401931133175,-7.562792787880938e-05,0.000230957833502,-8.609131258084234e-05,0.0002491000775608,-1.2583387370871594e-06,0.9536140860333616,-2.008256365209452,-4.182118734367463,-1.6586645810604057,4.716236723579376,-2.3275639777832264,-0.1061002492361705,-0.4501104049595744,0.565053358734378,0.7552938908941833,-0.6553813955079206,-0.001899652933864,-0.0016566298179505
0.0686943319838056,0.3160000145435333,0.3440385395537526,-0.1061805273833671,0.6579939148073023,18.31237322515213,0.6838577666078055,-0.0405583267757853,0.9565459150588398,-0.0318420475377794,-7.847027790741308e-05,-0.0005255288997598,0.5995402598477764,-1.3179301796853429,-4.3624487281087445,-2.1636010773495418,4.703470161430251,-3.501302352278408,-0.4900723866226707,-0.5443172521330039,0.3396439056911526,0.9544110854305554,-0.298366684579946,-0.0028418500845851,-0.0077589331497013
0.0683340122199592,0.3230000138282776,0.386246835443038,0.33892194092827,-0.0344556962025316,19.18776371308017,0.2600376366128423,-0.065755760109054,0.9103555504188888,-0.0503668347638886,-0.0095826085185189,0.0001598523909035,0.9877301971369152,-1.3683585010950066,-3.992450146735469,-2.4858968363002747,4.700837871696376,-2.833145601029901,-0.1621609710408414,-0.5651576487575403,0.2274480335225787,0.9036923269682292,-0.4280823295000736,-0.0070135776193729,-0.0039285829171433
0.0640811359026369,0.3039999902248382,0.3579251012145749,0.6534736842105263,0.2790668016194331,16.842105263157894,0.7052872732592309,0.2349458395261521,0.9530260911018616,0.046082137611533,0.0095165841384392,-0.0027843629533135,0.7716424501376596,-1.053406662882738,-4.5919830384042095,-2.213893050885872,4.7386019702865045,-2.381234080068696,-0.4881813066449725,-0.7217261644027494,0.2579614694422555,0.7131716919090101,-0.7009026297190895,0.0099202885079435,0.0034755668732496
0.0429066937119675,0.3179999887943268,0.3830344827586207,0.5262758620689655,-0.3420344827586207,17.04868154158215,0.6577500172596887,0.2692976904417831,0.9697593809352536,0.0775587388115882,-0.0378994177278032,2.026248183079792e-05,0.8033252762248985,-1.228356426408211,-4.392279121019778,-2.2549933429634,4.736793406836643,-1.4780489699380015,-0.3919341449926156,-0.660452951645029,0.2946900988024098,-0.3507381563979762,0.9363397860381956,-0.0126530438289424,-0.0060046980318126
0.0541361788617886,0.3529999852180481,0.413587044534413,0.2602854251012146,-0.1453947368421052,19.95344129554656,0.247853072751077,-0.0774418853103572,0.8735711519825052,0.0278077955319351,0.0124473681429281,-0.0004068784126986,0.9666241367577542,-1.5926538809138986,-3.9939673883229614,-2.276601233742011,4.7391014369393165,-3.293818309588189,-0.1473801842917073,-0.5308680218240993,0.3317008185000554,0.9751429381640816,-0.2212638194382432,0.0076045934026042,0.0086677828822511
0.023390243902439,0.3319999873638153,0.3645,0.0659858299595141,-0.0482510121457489,21.57692307692308,0.1345241529092551,-0.2346384013567136,0.6887840994785401,0.0069426431245514,-0.0013229794874803,-0.0011892569798145,0.5239151673399003,-1.1845783866588264,-3.749625550107917,-2.926866285510388,4.7213902405881685,-1.3481613661704357,-0.3070651097939564,-0.3868159757934601,0.0942959120489566,-0.1540219415778573,0.988052740150135,-0.0046465733062159,-0.0026393498756888
0.0362131147540983,0.0689999982714653,0.1052920892494929,0.0434604462474645,-0.0055192697768762,16.975659229208926,-0.0004557267904843,-0.000293872972124,-2.1771504882874115e-06,-4.113466934570187e-05,3.931031369870514e-05,-0.0001817325058207,0.9239179309434872,-1.9986041747986063,-4.1953933717754746,-1.658633920771029,4.719695609674976,-1.186861960184633,-0.1226795653209966,-0.4517724672389079,0.5700236919201895,-0.2676120674271612,0.9635267462014668,2.510551624339593e-05,2.760446805720623e-05
0.0356991869918699,0.5450000166893005,0.6074787018255577,0.5039513184584178,-1.1003975659229208,17.84787018255578,0.5767029964674176,0.2769754991563208,1.0533727444671424,0.018292314656336,0.0434974755740057,-0.0006014572005973,0.6479897756605555,-1.026644968466901,-4.67774832708115,-2.1275247821429804,4.7447863940534925,-0.2717515336358628,-0.5970099893593159,-0.6753601528568152,0.2746645223205762,0.3172577923016422,0.9481870041174048,0.0010159733688929,0.016478752989405
0.044510162601626,0.4939999878406524,0.4999291497975708,0.3922692307692307,-0.0096902834008097,20.115384615384617,0.2353462779171563,0.0325893911523229,0.9310863687821448,0.0262193059109323,0.0863188726420819,0.001108643868549,0.8357905667079123,-1.426832793798699,-4.1011938228298295,-2.298315542708521,4.743673599683321,-1.5876957731799155,-0.2658060283856353,-0.561615656503299,0.2923610275724397,-0.4159602251371391,0.909178748545859,-0.0064419643702915,0.0164882449964853
0.0446612576064908,0.1309999972581863,0.1776754563894523,-0.0388620689655172,-0.0147241379310344,16.496957403651116,-0.2454788223554852,-0.0754565581257196,0.2593154020280568,-0.041964251342061,-0.0010292765265887,0.0024543024828388,1.0262894265308342,-2.018692717829692,-4.400170642512324,-1.425742970703487,4.715234323157258,-0.7682137646277447,-0.0740017408778292,-0.4468125625991434,0.6952800314276504,-0.1118189296694604,0.9937130772559686,0.0042859769413125,0.0003878722073721
0.0469188596491228,0.050000000745058,0.0948213552361396,0.0430287474332648,-0.0206468172484599,16.985626283367555,-1.9892986747155297e-05,-4.512178020474811e-05,1.545734890606297e-05,-0.0001085235395292,4.08067112581691e-05,9.576493661959434e-07,0.9270259845672936,-1.990583560054958,-4.117522356201736,-1.7500964300288946,4.723962803396112,1.1050859156085726,-0.1199932387385525,-0.4513053776547159,0.5241077514154955,0.7663955173208483,0.6423594824342512,-0.0021795539665408,0.0027344740121156
0.044244939271255,0.0949999988079071,0.1424048582995951,0.0240020242914979,-0.0208623481781376,17.18421052631579,-6.010755485533363e-05,3.183855391929157e-05,-7.812329355538608e-05,9.654901957360374e-05,-9.45441025965611e-06,8.24190266456735e-05,0.9241603453632308,-1.980532890668278,-4.092717151410184,-1.7794696814511912,4.719604830992849,-0.3383495043754655,-0.1224003049888109,-0.4515821370277327,0.5063890655513718,0.1522558673552656,0.9883411163501894,-1.164469559576074e-06,1.0964696812001658e-06
0.034324644549763,0.0769999995827674,0.1141875,0.0685288461538461,-0.0207451923076923,17.004807692307693,2.8677762900689636e-05,-4.05424305527753e-07,-1.983863311515145e-05,1.819807059729349e-05,-3.321179508332874e-05,-6.609971627960079e-06,0.9238204463170124,-1.9989427437077607,-4.200054697119272,-1.6537112163884398,4.71969454563581,-0.8195874340970585,-0.1227667349963807,-0.4518184628194341,0.5727898501432859,-0.087103875586763,0.9961992271531088,-9.31420989643742e-07,-1.9585500470491287e-06
0.0354725050916496,0.3230000138282776,0.3734554655870444,0.1109595141700405,-0.308587044534413,21.08906882591093,0.1496822350887898,-0.1561369469848813,0.7887148506808064,0.026733522287731,0.0104589784281677,-0.0017632794009847,0.4875432524362556,-1.3077875006954731,-3.846370549337101,-2.7013605840669435,4.761188391249189,0.571207731660561,-0.3597173781892066,-0.3984977280200734,0.1579023876985316,0.7333447220113113,0.6794806794840315,-0.0070662106715353,0.021386842051076
0.0443164300202839,0.1959999948740005,0.2411845841784989,-0.5516247464503043,0.1656267748478701,16.959432048681542,0.7893590000031383,-0.0735737260191574,0.9317000727402752,0.0098819662740857,-0.0185870355674955,-0.0013069753668063,0.5412516868984966,-1.1449184656739235,-4.54235268703097,-2.176416154320693,4.718953356056136,-4.618786838647449,-0.6107926852925554,-0.5709541573002179,0.3061727360646575,0.9743950470949524,0.2247739838659158,-0.0049933545524254,0.001957688754652
0.0417931034482758,0.1580000072717666,0.1834158215010142,0.2322636916835699,0.4125578093306288,14.967545638945234,0.3461688458429605,0.1472123872088128,0.9691189529167576,-0.1881528188380384,-0.3491420365885533,0.1175537914065443,0.9947801468096688,-1.4099969670984616,-4.173527831721741,-2.27894951218467,4.536155633945736,-4.10902021693205,-0.213217169741588,-0.61185215356142,0.3139243564487229,0.975855947266244,0.1970413460813719,-0.0661949692388456,-0.0574657491806887
-0.0022860169491525,0.3039999902248382,0.2926032388663967,0.7898056680161943,0.0316902834008097,16.902834008097166,0.732151158566264,-0.0097386002649887,0.9676722561831108,-0.0836944306747306,-0.0261593549409855,0.0010267070879811,0.6317541902123193,-1.0485679977951023,-4.53832353078402,-2.27291911071997,4.679885670241074,-1.972595378803539,-0.5731349857712564,-0.6311580573740275,0.2323488323583535,-0.4966957277735235,0.8676981450575083,0.0175462165538236,-0.0053827077388831
0.0114361054766734,0.3700000047683716,0.3717276595744681,0.3416489361702128,-0.0959680851063829,20.574468085106385,0.2418342874460777,-0.1640699117788527,0.8565769091805203,-0.0248052121916622,-0.0026878234934077,-0.0003045433138057,0.531665814556974,-1.367073571668062,-3.922797253284049,-2.5569855946469864,4.701433355250257,-1.2613773930950096,-0.3664327318998093,-0.4203070926539441,0.2041882431570519,-0.1143624891150505,0.9934055890174622,0.0079047114196966,-0.0003221606285846
0.0120185950413223,0.3269999921321869,0.3054736842105263,-0.1117631578947368,0.5979129554655871,15.125506072874494,0.7077816075737947,0.4297023549429169,0.971201785116336,-0.0286786342180144,-0.0184080729090326,-0.0010920691464185,0.7714346696732015,-1.3085640118291495,-4.59120331602058,-1.950692724398752,4.704363363474487,-3.514751820777793,-0.4383725871441335,-0.6658872889603681,0.4387007104723077,0.9778170339491686,-0.2093230156823691,-0.0051695739328182,-0.004823708007968
0.0173808553971486,0.3100000023841858,0.3122819472616633,0.069393509127789,-0.1670466531440162,20.89655172413793,0.1493671583592379,-0.1947849448353323,0.7665111812989251,-0.0202069194077773,0.0050089590594219,0.0001148809917312,0.5054746584524731,-1.3109621365024156,-3.806396700064018,-2.7277568252255064,4.702247957187057,-0.5633839141310696,-0.3346670475499383,-0.3879517082873029,0.1496177655597487,0.2446830586415033,0.9695726087804256,0.0073512354006133,-0.001733383982141
0.0230687361419068,0.0860000029206276,0.0998150406504065,0.0552113821138211,-0.0149024390243902,17.0,-7.425520595224107e-05,-3.419835642349018e-05,4.372421045503109e-05,-8.043297451242859e-05,5.7421781548574025e-05,9.036169278677204e-05,0.924020712574323,-1.99072116827076,-4.138808097296614,-1.7231906087464726,4.719651026454399,0.4820364301161068,-0.1225649570001334,-0.4516879855011537,0.5354754262096514,0.5339644327154004,0.8455069487899299,3.3792763314837238e-06,-1.7156243200831304e-06
0.0293146551724137,0.0790000036358833,0.1080628803245436,0.0507322515212981,-0.0203245436105476,17.002028397565923,-0.0002157546866592,-0.0001798932809036,-8.751967874195191e-05,1.902702287856185e-05,-1.440167498918392e-05,-8.651958854727572e-05,0.9242069259376604,-1.9776790698178284,-4.0820854720914586,-1.7928858983317573,4.719570623208253,-1.3994720298696348,-0.1223305047586046,-0.4515274468711133,0.499556554560729,-0.3688559914820092,0.9294865451768252,2.1895566507952307e-05,2.469026087358808e-05
0.0262784552845528,0.3009999990463257,0.337270325203252,0.1483292682926829,-0.3554471544715448,17.721544715447155,0.3338295609685447,0.065675248472088,0.9550393685538489,-0.0187312684873464,0.0215760134820887,0.0012523944162406,0.9111902410906504,-1.4152205776359514,-4.162992306841098,-2.259461830985091,4.718295652691911,-1.0891676032393574,-0.2414072972487628,-0.5983221263177996,0.3111600761975699,-0.2159484584883945,0.9763749687652278,0.0044596416358003,0.0057677483338506
0.0217663755458515,0.0570000000298023,0.0821156186612576,0.0499959432048681,-0.0206592292089249,16.91480730223124,-8.664730817176111e-05,1.7611871616742426e-05,2.6183581767065055e-07,1.7710028002064302e-05,7.289584247937803e-05,6.343136903517122e-05,0.9239897876675666,-1.9934125875091095,-4.154826972837622,-1.704478659443065,4.7196769724027625,-1.3918233094088552,-0.1226148465704966,-0.4517259803311578,0.5453756923124224,-0.3649407809573787,0.9310307297213324,-4.028081218667203e-06,-1.4871135525711484e-07
0.0034720496894409,0.2129999995231628,0.2239817444219067,-0.1453975659229208,0.3502271805273834,16.872210953346855,0.1366465462204837,0.1854247843161152,0.049320852830183,-0.0069201036176212,0.0028919575328612,-0.0006782351957757,0.9213170485370784,-1.952667966572714,-4.1888416659759455,-1.7108765973492646,4.719503720923805,-0.8495723511847578,-0.1353546978554425,-0.4665050513845912,0.5509137016764519,-0.1009822230763416,0.9948881954015149,0.0001435242934688,4.239808098613942e-05
0.0066844262295081,0.3039999902248382,0.3164381338742394,0.301079107505071,-0.110815415821501,20.663286004056797,0.1751908189443618,-0.1613379604979936,0.8309686172130978,-0.0145401689039565,0.043259861196399,0.0011139575605248,0.538826226281346,-1.547127266715549,-3.882406544733725,-2.3935530374276595,4.720269452727591,-1.207753504727855,-0.3222631355690907,-0.4005085288511086,0.2634217338768754,-0.0908106528298124,0.9957555874607869,0.0048537683223598,0.0137272544892818
0.0107459349593495,0.796999990940094,0.7975000000000001,0.6218623481781377,0.0461983805668016,22.62145748987854,0.3618590384490082,0.0600322533926721,0.8055603235225303,0.0016371691114527,-0.0058288329124027,-0.0016163205546608,0.4921111050646314,-1.1965055773732756,-4.412455731557931,-2.2513345448970754,4.716768329442754,-1.5654783093120483,-0.5989069288317491,-0.5203697169840578,0.2858320079924848,-0.2439477981524428,0.9697808648651912,-0.0003569910278838,-0.0037795309423231
0.018762677484787,0.101000003516674,0.1183103448275862,0.0584421906693712,0.0231703853955375,17.920892494929006,0.0381085360465211,-0.0239239631179448,0.9436648110084698,-0.0029907768343303,0.0115287143724203,-0.0005377102005276,0.7978539949256557,-1.4435747503927288,-3.9666563028254327,-2.431671674543572,4.7271777543770135,-3.2317868867490027,-0.2516737220616176,-0.5110250585703047,0.2541427885240763,0.9433271639487324,-0.331782914924815,0.0067409987714421,-0.0028403717741128
0.0100451745379876,0.3039999902248382,0.3342813765182186,0.4298724696356275,-0.3203623481781376,19.11943319838057,0.4100331988946762,-0.1079400929202975,0.9363727219615084,0.0221725347366173,0.0610117242389108,0.000766874493496,0.5793530906622226,-1.467847224026926,-4.105317931426199,-2.256952010947197,4.72994454766092,-0.7781940103650654,-0.3908518552780151,-0.46839576489047,0.3139823531422779,0.1036807320981855,0.9945209051674676,0.0021845974489603,0.0119468610731862
0.0042869198312236,0.3100000023841858,0.3099614604462474,0.4296612576064909,-0.0660933062880324,17.582150101419877,0.3296650675974211,0.0523277194730634,0.9778350468357394,-0.0011893030533081,0.0154691901460043,0.0022049919210229,0.8890251934407449,-1.3163288398004245,-4.1383688764204605,-2.391413597738441,4.7222080994813,-2.2148559023138343,-0.2602897021639903,-0.6014753664724726,0.2493443183797368,-0.6959475635515023,0.7180804378120701,-0.0020085936164271,0.0034606537156366
0.0042869198312236,0.3100000023841858,0.3154372469635628,-0.3395060728744939,-0.096748987854251,17.25910931174089,0.1341219989113862,0.207118446570537,0.080582018523686,-0.0047599927552356,0.0080248428728148,-0.0009836108702234,0.922631188804804,-1.9299899994014205,-4.143041450485044,-1.779247111433427,4.719835617281647,-2.185020853981998,-0.1382082498930243,-0.4712291398511724,0.5174270564245309,-0.6959606664866088,0.7180798214215499,-7.394390266042757e-05,0.000199867086082
0.0184563894523326,0.1199999973177909,0.1493979797979798,0.1065494949494949,-0.233230303030303,16.66060606060606,0.4110833074930377,0.0123797549643866,0.9056302170828312,0.030389379722219,-0.07734526524955,0.0010948534372748,0.9199750195850026,-1.5165188277820054,-4.110128243764241,-2.26055223443877,4.7158190149249455,-2.2890724461435363,-0.2125281593715301,-0.5695519502716835,0.3470011421225287,0.732344960925555,-0.6806987643241882,0.0003580327496471,0.0164177378545505
0.0153849287169042,0.3070000112056732,0.3324493927125506,0.309331983805668,-0.268746963562753,18.56477732793522,0.1780397547963086,-0.0346156720024811,0.9390287091779672,-0.0100496591449911,0.0322246569369869,-0.7638522300257709,0.9117514249766886,-1.3385453496472732,-3.99785698425432,-2.5017866077587154,4.720820633506003,-1.566131557878896,-0.2064540080937296,-0.5567142579719605,0.2150549559970857,-0.4346484336172521,0.8981581925139254,0.0011286207095122,0.0071806563908113
0.0290772357723577,0.527999997138977,0.5577479674796747,0.2032154471544714,0.0662662601626016,19.00609756097561,0.3556876341094144,0.1931253321579644,0.9623608850362744,-0.0099247631471989,-0.0054228970058432,-0.0012603243931709,0.8466790977532301,-1.4491048890119862,-4.102724464928231,-2.297719363957721,4.704537397477685,-4.185898601615878,-0.2618643069654945,-0.557256440806195,0.2980861530707376,0.9867141022672498,0.1623253910158708,-0.0029400075687383,-0.0060493657247133
0.0250388548057259,0.1220000013709068,0.1498323232323232,-0.0900747474747474,-0.0637535353535353,17.11717171717172,0.1122413792995916,0.0648671316878813,0.8849735126808881,0.0981248628164249,-0.1081920242521661,0.0022934930588391,0.7942606976537994,-1.6998615992623507,-3.92200113450638,-2.2998303968073905,4.713844563262631,-1.9734532717449795,-0.2078172135834742,-0.4604074209025411,0.3491282022962667,-0.5652578278021378,0.8241528388225671,-0.0044071565852547,-0.0331199459073067
0.0254817813765182,0.1749999970197677,0.2181622718052738,0.3310507099391481,-0.3102008113590263,16.11967545638945,0.4622323256181138,0.0931959339559876,0.9561711091619473,-0.0196007710059848,0.0179602488598132,-0.6113587117427777,0.8616839428460622,-1.3172641323651495,-4.208421767120671,-2.3139696005120123,4.713519379768604,-1.554761002782282,-0.2955754993230285,-0.6134562365423594,0.2724434236635059,-0.408176223416841,0.9114171937561422,0.0043428805873976,0.004999887276607
0.0446518218623481,0.1199999973177909,0.1559513184584178,0.0197667342799188,-0.0011359026369168,15.780933062880324,0.7981320619003931,0.0040210133578209,0.8646774575673247,-0.008352910125932,-0.0644310884261422,-0.0006745913626503,0.9371285833886864,-1.4284129136568815,-4.252086165468785,-2.2120452285024874,4.711344199538472,-3.399459336619238,-0.2445142754177897,-0.6271024385040237,0.3605319348298028,0.9827040105030456,-0.1840682931350162,-0.0114417169479233,0.0157335483701427
0.035744635193133,0.1150000020861625,0.1478724696356275,0.52234008097166,0.0549696356275303,15.410931174089068,0.6225221012048048,0.1557289310958379,1.042870579114003,0.0804698850699408,-0.001056134416497,-0.469863653986753,0.7011882073966115,-1.0171790199811042,-4.630951693183498,-2.227154014843192,4.762888490429774,-1.7023291364480688,-0.552563586396727,-0.702711543090913,0.2544822393641298,-0.4035026884151373,0.9138025182944076,-0.0240840459740173,-0.0047886180286088
0.0367545638945233,0.3039999902248382,0.3285474747474748,0.0855292929292929,0.2110101010101009,15.72929292929293,0.6486925918088876,0.3048435133591221,0.9365143653157884,0.0107716133081886,0.0177909774629733,-0.0009008355580683,0.7604098692084804,-1.4707393603277377,-4.305679705648712,-2.070866024692688,4.736602587651725,-2.888491415249729,-0.3512348168727123,-0.5744055669115047,0.3945479715111279,0.8630870919034939,-0.5049689451853434,0.0092510824035288,-9.487666512148444e-05
0.0067378048780487,0.7350000143051147,0.7291555555555556,0.6247535353535353,-0.0111151515151515,21.523232323232325,0.3326477731870715,0.0290937126005176,0.9357355487671644,-0.025913814946063,-0.0126190504837582,-0.0006944318881767,0.5013048028103029,-1.2083367701033565,-4.270607874128554,-2.373041924159772,4.688936611137005,-1.4094825489299758,-0.5407462133301629,-0.4930405870230511,0.2345220576633106,-0.1724116490946875,0.984922757052412,0.0133627683093602,-0.0041907861212625
0.0185638945233265,0.2070000022649765,0.2238502024291498,0.1645931174089068,0.0169473684210526,20.10728744939271,0.1306679037969083,-0.1777677093441625,0.7475615803560911,-0.0238000756234456,-0.0135229029295371,0.0006736089220806,0.5282104236756259,-1.3795183044390955,-3.779296501445384,-2.696019623722621,4.692210667529086,-2.8569140452230584,-0.311382037244345,-0.3851649661054495,0.1705521978739543,0.7899513450952677,-0.6130540350429442,-0.0111937659438171,-0.0034013840783225
0.0190182555780933,0.5590000152587891,0.5869878296146045,-0.2603407707910751,0.1847342799188641,20.407707910750503,0.3113265794112905,-0.0332803007125589,0.9416218430864888,0.013718917871197,-0.0017743208007387,-0.0022197736001238,0.5077053964984345,-1.6413296646046676,-3.99493682892279,-2.221725791750199,4.7244373702616045,-3.363127417040052,-0.3542319023584981,-0.3990043782559176,0.347706133979571,0.9138375243840788,-0.4060588257791546,0.0008669957654592,0.0038787504413937
0.0141836734693877,0.19200000166893,0.1951801619433198,0.3830566801619433,-0.1078987854251012,15.77327935222672,0.7267376132169461,0.0193384385508456,0.8792447869383823,0.0474902706680229,0.1264866484309777,0.0043839690109773,0.9199131542613148,-1.42486983781777,-4.276544845055954,-2.0651615132098216,4.764216386354887,-1.066606689427264,-0.2468644120251601,-0.621549218772394,0.3558776931995563,-0.2074612657188886,0.9770313532728898,0.0101136411082167,0.0462994934455585
0.0137632653061224,0.3770000040531158,0.3965850202429149,0.1246761133603238,-0.0809412955465587,17.275303643724698,0.4963775330777442,0.258280599803976,0.885601768492717,-2.7238037754824287e-05,0.0066069734180688,-0.0004312737483485,0.8019467306281873,-1.5283617572344508,-4.249950113566781,-2.072950254364048,4.721818339004208,-1.504030932165069,-0.3067983041106448,-0.5670294714601416,0.402873002867467,-0.361585757389725,0.9323372359459215,-0.0010958396387097,0.0012944826741018
0.0122653061224489,0.1150000020861625,0.1664925690021231,0.8346475583864119,-0.5160382165605095,13.830148619957535,0.2481235191982076,-0.1188878491014142,1.1316934693193306,-0.6730991371412675,-0.3527992905077629,-0.0023246035004332,0.9767514391309896,-1.219408567569264,-4.290867890521979,-2.120393267681226,4.344661900951604,-1.8628425378402536,-0.2698716876866205,-0.6382570681804811,0.2436916131897969,-0.598697731575895,0.770912732035238,0.2033411180897123,0.0373020698089002
0.0239028340080971,0.1150000020861625,0.1334230769230769,0.0287874493927125,0.035161943319838,19.00202429149797,0.1507481211472563,-0.1861183978647538,0.7656557201373533,-0.0444480287050182,-0.0181204104426003,0.0005127594852149,0.5097536567131035,-1.478173405251059,-3.800448834172145,-2.583709992174191,4.701992614066553,-3.921694533893655,-0.3177346466523915,-0.3800743280755363,0.213766718532151,0.9905813622329882,-0.1366071387642791,-0.0077470679058568,-0.0027126870167275
0.0173381147540983,0.0799999982118606,0.0864331983805667,0.0523582995951417,-0.0092712550607287,16.927125506072876,-0.0001407510800237,-0.0001260924590897,-4.409603376682043e-05,5.6533827189905686e-05,-3.6919954510754e-05,-1.6626403992856885e-05,0.9237250733954704,-2.001542274082234,-4.238923572818277,-1.6121899177082115,4.719721784475844,-4.061455754964658,-0.1228705529983227,-0.4518737152882433,0.5957600795305692,0.9906056231332694,0.1367496634844826,1.736949036535683e-05,-1.3627794723918228e-05
0.0021324503311258,0.0560000017285347,0.0558091106290672,0.0582386117136659,-0.0247288503253796,16.420824295010846,-0.0001620086328011,-0.0001675498898445,0.0001750058714065,-0.000239240938768,0.0001957835741946,4.201293510172076e-05,0.9242074560705338,-1.9756339911527665,-4.075304162735018,-1.801735252879196,4.7195677229742685,-1.983802823297965,-0.1223009716953734,-0.4515397416795412,0.4951470286753069,-0.6209661637366206,0.7838373790594089,3.438069593867044e-06,1.8541608254270184e-05
-0.0092262931034482,0.3659999966621399,0.3513805668016194,0.0074919028340081,-0.3919230769230769,18.321862348178136,0.1758259989628028,0.030276373621238,0.9569394207927434,0.0212367564047777,-0.0061763079607154,-2.317098088926538e-05,0.9697832179214309,-1.314818987416259,-4.029359176091337,-2.516831530529474,4.720373808131044,-0.6224328292634401,-0.1857603022202789,-0.5839496155982076,0.215434099498548,-0.0141371831859684,0.9998890753941014,-0.0042730260198287,-0.0009128480553472
-0.0092262931034482,0.3659999966621399,0.3386882591093118,0.011995951417004,0.377919028340081,17.360323886639677,0.0693910346952482,0.1868341349305809,0.0799724063442157,0.0006704515690157,0.0021498185505075,-0.0004230632457921,0.9337586743628932,-1.930151669398972,-4.092868664004059,-1.8297183516430915,4.719658251233429,-0.6623309159194005,-0.12953705355706,-0.4676684580351177,0.4901919085607837,-0.0141192957521359,0.9999002985626098,-2.9241316627320544e-05,4.573085178825196e-05
-0.0491727642276422,0.3070000112056732,0.2737975708502024,0.4407085020242914,-0.4732449392712551,16.37651821862348,0.7279436321524675,0.1422183597226324,0.949961314496992,0.0585951259218403,8.490301476886594e-05,-0.0011664555253132,0.7077908052606621,-1.1079117317366187,-4.485345888716972,-2.272354120463973,4.741507692375646,-1.0066981362535965,-0.4970615553831765,-0.6584141717748604,0.2515908683148714,-0.074956128366201,0.997091888295494,-0.0129740261208824,0.0016022486698687
-0.0482125506072874,0.3039999902248382,0.2678489361702127,0.7587829787234043,-0.2519936170212765,17.448936170212765,0.7305364839973923,0.0121401748550979,0.9433590556847968,0.0369694641766853,-0.0189772922696123,-0.0011113793713402,0.5867613596485016,-1.2266791431836466,-4.497922900382509,-2.1358043115484,4.731683126409003,-1.2509763673634968,-0.553389869218177,-0.5791084663665041,0.3445409931400989,-0.1357930816551472,0.990703965374764,-0.0072320750084745,-0.0005629402607958
-0.033989816700611,0.3770000040531158,0.3391234817813764,0.3883016194331983,0.1021943319838057,18.910931174089068,0.5337797974546739,-0.0243973236713293,0.8771394200800346,-0.0172428612221764,0.0269337238498677,-0.0012082574069246,0.7149216587002943,-1.5169241723560956,-4.343966259164849,-1.9731875477347192,4.717616257879898,-2.489940887869329,-0.3729715878181612,-0.5552344298073155,0.4507516243076517,0.7305367871334678,-0.6828088274127558,0.0004540103495206,-0.0090714220677762
-0.0181451942740286,0.6069999933242798,0.5473481781376518,-0.2568076923076923,0.4052611336032389,19.58704453441296,0.3668552215666955,-0.0325721321163815,0.9247471368046272,0.0101790913250848,-0.0047566192488015,-0.0019479809967905,0.4770934570897446,-1.4865165589621128,-3.9989766616087694,-2.372970497356249,4.721654224009649,-3.120524548191974,-0.4013369922575198,-0.4056607778014441,0.2781494424983798,0.850251426218975,-0.5263645868552359,0.0002554472313475,0.0034362373775557
-0.0073397027600849,0.1430000066757202,0.1362048681541582,0.064630831643002,0.1327849898580121,14.918864097363084,-0.1256250005463121,0.1686300852882191,0.2205910049486286,-0.0055473777099121,-0.0392033252745248,-0.0002076064495691,0.9917701735457832,-1.9343019179803729,-4.325446089189386,-1.5944793254999448,4.715053296234255,-2.0312013831418,-0.112791704531555,-0.487264245506716,0.6253939052140737,-0.6645146491077802,0.7472671311477135,0.0016832037975237,-0.0013249615692257
-0.0064400871459694,0.75,0.740609756097561,0.1239735772357723,0.1649715447154471,22.91869918699187,0.1065489775552626,0.0347916053875935,0.9470334905081088,-0.008125357586252,0.0051956974702305,-0.0007425438434979,0.7854337497213022,-1.4799483009561056,-3.9764463247322457,-2.371423474855374,4.711729281316928,-3.525267617580913,-0.2544480040063703,-0.5014056712994731,0.2691494361232451,0.9804304347532552,-0.1964556798944628,0.0044624364950951,-0.011873858072227
-0.0054025423728813,0.2290000021457672,0.2201821862348178,0.3491882591093118,0.0567348178137652,18.92914979757085,0.2681936156875013,-0.1739544790581711,0.8730660299785458,-0.0076305000645419,0.0133625585631037,0.0004595073508924,0.5188646918607627,-1.2795501875310218,-3.945219330459471,-2.6186187414881634,4.714637158853322,-1.8412273951978413,-0.388837337554225,-0.4271797667510114,0.1688481381517431,-0.3878149811917471,0.921724882806361,0.00125320486254,0.0044601146576677
-0.0093485477178423,0.31700000166893,0.3185566801619434,0.2992692307692307,0.099578947368421,18.206477732793523,0.323632608201333,-0.0098923516691825,0.945164950644228,0.0181290058710798,0.0297352675472994,0.0009235374108121,0.8419322496966312,-1.3498096364135397,-4.080545435067613,-2.4161242949228985,4.733961055153294,-2.68282753867293,-0.2672070906109173,-0.5676531459879779,0.24627687928346,0.8305694159225896,-0.5568414780533748,0.0084896769072023,-0.0017992947262387
-0.0066409691629955,0.367000013589859,0.3740668016194332,0.4219170040485829,-0.6198360323886639,18.097165991902838,0.3842306399069362,0.0901545214967342,1.071489554198726,-0.0324622405655615,0.0279464833438726,3.943321323754064e-05,0.7438268980033967,-1.2233172318765342,-4.3414003395358565,-2.2644189709970304,4.714150388231162,-0.7037217528822046,-0.416519026645282,-0.6215677419413439,0.2733860269098388,0.0585499732087739,0.9982113290412225,0.0094053635396334,0.0067789653662086
-0.0317064777327935,0.2639999985694885,0.2472967479674797,0.5289898373983739,-0.3662276422764227,15.689024390243905,0.666124705714085,0.2488551425873092,0.9789177869653788,-0.037395003651748,-0.0379932770484462,-0.1826875093698966,0.8179116639179912,-1.171037347255272,-4.468080731911388,-2.215297155947056,4.693440830804469,-1.3493738141433629,-0.4114294016991204,-0.6901283789940966,0.2868710883658349,-0.2952150877534858,0.9552165516992894,0.009967751699742,-0.0064421049465909
-0.0317064777327935,0.2639999985694885,0.2348016194331983,-0.5094676113360325,0.2941538461538461,17.24089068825911,0.219497405429666,0.2109782699870132,0.0421759159851097,-0.0098766627938683,-0.0044193117842861,-0.0369140302476639,0.913771013861243,-1.9342869894601031,-4.152167454422244,-1.7661177497054843,4.718982777614825,-1.1680382561212688,-0.1412468881229398,-0.4688043579278204,0.5234072664488665,-0.253703172028306,0.9672804718558122,0.0002340158508975,-8.608854801112581e-05
-0.0091947261663286,0.4169999957084656,0.4337757575757575,-0.7009171717171717,0.1293232323232322,16.086868686868687,0.727202859851844,0.3820425234198551,0.9700503869999778,0.0366976184377342,-0.0080570577060023,0.2036735836474656,0.7092542751870974,-1.2582161438212056,-4.556824806483105,-2.050602941398504,4.72832582358158,-4.40284024440354,-0.4850757876429895,-0.6464529025434244,0.3880208101537492,0.9790610484402588,0.2026272785784018,-0.0031975010736854,0.0070967460519192
-0.0144503042596348,0.3039999902248382,0.3005151515151515,-0.5624868686868687,-0.0035070707070706,17.547474747474748,0.7110448981754051,0.0463725369990959,0.9858456161166702,0.0290678285642486,-0.086921151278815,0.0016610772861863,0.6518023750998757,-1.1620564410919645,-4.387132679332386,-2.344374193886149,4.721721238800973,1.0705249744232257,-0.4987015771143364,-0.6012012466035708,0.2529629586320935,0.8366451254998795,0.5473380934108387,-0.0193256732800768,0.0032506100008518
-0.0166896551724137,0.3140000104904175,0.2973056680161943,0.2033137651821862,-0.2683097165991902,18.24493927125506,0.1444459113647024,-0.0375380538742116,0.9361929329241092,-0.0156890834572314,0.0290667744164024,8.172058205187063e-05,0.9636430156375716,-1.3722070794407732,-4.001502549600022,-2.464124502237023,4.722470360728893,-1.318674301677588,-0.1763105801785523,-0.5649547872514378,0.2330606488382768,-0.3513576131359285,0.9362065422872784,0.0018566597823613,0.0074213100729231
0.0017367303609341,0.3050000071525574,0.2920060728744938,-0.0510870445344129,-0.1091983805668016,20.33400809716599,0.0695004544568186,-0.1411685516939342,0.766958311571983,-0.0635919715568791,-0.0216063408833059,0.0012418008295332,0.6886828135140994,-1.2278646508156597,-3.791927638806795,-2.8389896451596752,4.680221700475284,-0.778727939603018,-0.2615588777340375,-0.4397520705273277,0.115989372481098,0.0477922789767565,0.9986948076530024,0.0103660425551137,-0.01356685638752
-0.0075958762886597,0.1780000030994415,0.1881376518218623,0.3267125506072875,-0.5332995951417003,14.27327935222672,0.7212863376374723,0.4270378338309273,0.9587131243301318,-0.0472635142210621,-0.0010829892826622,-0.0008986852045983,0.7553747185328712,-1.1501520667723342,-4.632335100096729,-2.0574459800729827,4.705525838411772,-0.5725499559136132,-0.4932832897674699,-0.7010510041404833,0.341479914692732,0.1185211788123918,0.9929037288374264,0.0086508001545387,-0.0007386984316731
-0.0001404612159329,0.3100000023841858,0.3265528455284552,0.2510589430894309,-0.0863963414634145,20.652439024390244,0.1580256164386844,-0.1595022033445227,0.83642099964896,-0.0591947301010774,0.0030875407873422,8.002899017249441e-05,0.5966801673658495,-1.4570436012577417,-3.86552622308576,-2.5083080294702405,4.68217700477538,-1.739913077465464,-0.3082703609413247,-0.4196428594792761,0.2232499046750911,-0.3768096912682541,0.9260633861630913,0.0187164106220764,0.0069749784126794
0.0043760869565217,0.1589999943971634,0.1572555780933063,-0.1235354969574036,-0.1010973630831643,15.70182555780933,0.0361723800421635,0.2300116118115302,0.1219062214905202,0.0156524566000915,0.0146755635846792,-0.0008618350021718,0.9443570495135402,-1.9162281115658752,-4.1498999005640735,-1.787236122762855,4.721403152899133,-3.301741106977217,-0.1323058473713257,-0.4798143373662511,0.5171690580206517,0.9732571039915568,-0.2297135142960848,0.0006184567924257,0.0005040482650742
-0.0011847133757961,0.2370000034570694,0.2463421052631579,0.3267631578947368,-0.1676558704453441,17.149797570850204,0.4176852837860628,0.0301210608895261,0.9700638306013846,-0.0192674486730367,-0.0054404666864183,0.001232397413287,0.8109409309591842,-1.39559757190465,-4.203173944341992,-2.249206861782649,4.707820012984488,-1.7336663995785349,-0.3139272545754668,-0.5840962712581341,0.3194764500958958,-0.4704340128642827,0.882417028490831,0.0053718593923623,0.0006742812320189
-0.0149063180827886,0.3449999988079071,0.337979797979798,0.7041535353535353,0.1167979797979797,18.408080808080808,0.4437667913482138,-0.0232011977823372,1.027976086575826,0.0062428358463586,0.0074614195908526,-0.0013535731201402,0.576180739896466,-1.2008947622315118,-4.293250243832366,-2.3558317132247377,4.723063653888125,-1.6685219432315734,-0.5037325473746868,-0.5382569537018285,0.2412698811503371,-0.3336533707199675,0.9426904802370552,-0.002392146543181,0.0019129609274019
-0.0172064777327935,0.3510000109672546,0.3446444444444444,0.098430303030303,-0.0064424242424242,20.3979797979798,0.0592845229615562,-0.0470557253077184,0.8929590413557184,0.0186065510567957,0.02025780429951,-0.0009155975567085,0.7696064291578351,-1.3773113853198409,-3.910754262076484,-2.563944200632384,4.74659713976311,-1.7354884566630069,-0.2538640998228632,-0.4961869663060314,0.2066424645408235,-0.453372152164729,0.8911957563775958,-0.014020546772188,0.0047738208435475
-0.0412961460446247,0.3490000069141388,0.3189432048681541,0.0587018255578093,0.2484401622718053,17.010141987829616,0.1059045636644459,0.1638505868581082,0.1009045100208298,0.0017209529580465,-0.0056177631500943,-0.0011827851101207,0.9245968028207822,-1.9403018061548047,-4.134531568562042,-1.7782611237548311,4.719305322813455,-0.5751643492560221,-0.1342490223098478,-0.4673676553048178,0.5172365391834755,0.0341881729556629,0.9994152943938064,-5.492063289407814e-05,-0.0001769314398628
-0.0646024340770791,0.2080000042915344,0.1188073022312373,-0.3492271805273833,0.4829614604462475,15.20689655172414,0.755905098093725,-0.0194168933293413,0.9632373939016664,-0.0629571499979069,-0.0280495169573899,-0.0008557259559771,0.6128011344049814,-1.027226716260605,-4.587079413764133,-2.2329900530694347,4.675671094813163,-4.210727592005822,-0.601515100645487,-0.6311947900431635,0.2362460476057283,0.998046969061691,0.0586707434157933,-0.0083589365618004,-0.018902159212856
-0.0617287449392712,0.3039999902248382,0.2278231707317073,0.4611666666666666,0.2316158536585365,17.514227642276424,0.5677890531212091,0.1452518469539291,0.8644989898725546,-0.0203585240394758,0.0279697721936988,-0.0014081214860555,1.0036403364766904,-1.560939027665546,-3.962859002070698,-2.3132828732863,4.716713627179463,-2.21283028386915,-0.1246735284536058,-0.5179222236440434,0.2915061100620806,0.7350117359461823,-0.6780064866794804,-0.0015672321588807,-0.0073195790627789
-0.0617287449392712,0.3039999902248382,0.2722105263157894,-0.1501457489878543,-0.4889331983805667,16.57894736842105,-0.2704425928505373,-0.0244622516770268,0.1850646691872817,-0.0184935268278574,0.0035471151485126,0.0024318159649293,1.2018887055547611,-2.0634548425568218,-4.160596008725494,-1.6240858947593635,4.719382199198611,-2.018717840964213,0.0124758424801537,-0.432246244327742,0.5715873462227192,0.735000997419782,-0.6780613709075248,-0.0010430920221389,-0.0019026815167401
-0.0579574898785425,0.3449999988079071,0.3019656565656566,-0.1001494949494949,0.3187757575757576,19.628282828282828,0.3048468865855697,-0.1427850261692021,0.904395482137876,0.0074506130592246,0.016588497982699,-0.0020783057738717,0.5558296160264449,-1.364287146891052,-3.9873287566984543,-2.494878727095131,4.724908902910021,-3.565665227229697,-0.3797398628610553,-0.4463911083009508,0.2224628827788613,0.9576305102820348,-0.287953604652424,0.0049456414324466,0.0003676841788895
-0.0634645030425963,0.3350000083446502,0.2582008113590264,0.2547545638945233,-0.2392860040567951,18.2210953346856,0.0770567059375662,-0.0606715475023454,1.0123985279839909,-0.1012166667190676,0.0447076935943681,-0.1217377670331253,0.8727645401296944,-1.351169418369656,-4.025323100796094,-2.4658653673215647,4.696722153475996,-1.2958376704828114,-0.2384813555476631,-0.5547333200127793,0.2331235126930366,-0.2967300760214034,0.954793143344941,0.0103945579787663,-0.0014734224875626
-0.0597647058823529,0.2370000034570694,0.1379352226720648,0.1565425101214574,0.2160283400809717,15.8582995951417,0.0697102387721791,0.0734079140539269,0.980471467700177,0.0183013163267655,0.0002053949708336,-0.0001397678985301,0.8923848809500937,-1.469487850464808,-4.025243672764736,-2.3674241398886595,4.725414619754683,-2.787135679095581,-0.2130013717572216,-0.5444827626349955,0.2899992197812328,0.871075572272544,-0.4911098953200738,0.0030662451181673,0.0051672338116405
-0.0568969696969696,0.209999993443489,0.1419554655870445,-0.0696578947368421,-0.1670263157894736,15.346153846153848,0.1122034647394345,0.1671545684398427,0.1123857415025407,0.0014864563400411,0.0144156219259609,-0.0008068771995482,0.9219582027751908,-1.9362117117609527,-4.1281948330913965,-1.787945705183118,4.720461787482505,-2.604742423108916,-0.1358499176770086,-0.4677938736281414,0.5122227408745994,0.8301078967961223,-0.5576023140899565,0.00035919252166,-0.0001363466200426
-0.0930692464358452,0.1340000033378601,0.0579186991869918,0.2893963414634146,-0.1727032520325203,16.191056910569106,0.1594083478394723,-0.0457039605670761,0.9360358295984664,0.014039091526223,0.0367215556848424,0.0014337422588179,0.8594331798272404,-1.31489725115531,-3.974581369539586,-2.5541564862949384,4.7328264277155805,-1.2790638911962156,-0.2292856075233075,-0.5406278240971449,0.197556699618576,-0.2833263760175162,0.9589759301606232,-0.0043046866580029,0.0079338793028562
-0.0930692464358452,0.1340000033378601,0.0560101214574898,-0.1087914979757084,0.0953825910931174,14.576923076923077,0.1368366921469927,0.1426835623778103,0.0968610400576398,-0.0012643939288033,0.0118060481645954,-0.0006207043287727,0.915591560635972,-1.931644565459684,-4.085540972257915,-1.835068861278924,4.72005394692363,-1.22674935149877,-0.1363100972222654,-0.4639608119180811,0.4870405934358898,-0.283331451809358,0.9590219095168326,-6.198419802683612e-05,0.0002747607650146
-0.0789352226720647,0.1710000038146972,0.0884676113360324,-0.0472368421052631,0.0888218623481781,14.874493927125506,0.1048900984806891,0.1807512382526127,0.1192603948375654,-0.0320191014819324,0.0198530079951255,-0.001078267004106,0.9235404827575452,-1.932976639018846,-4.180867941273369,-1.7360396339719557,4.719145935074038,-1.6423988234767144,-0.1394277185442959,-0.4732426004371179,0.5400369977540815,-0.4783481941049398,0.8781674676819852,0.0006822205458232,0.0009567523126266
-0.0689716599190283,0.3490000069141388,0.2796815415821501,-0.1443002028397565,-0.3805618661257606,17.858012170385397,0.5021032814140751,0.0388463353284474,0.8395675480805566,0.0585858292644726,0.0662431223888472,0.0008601169624278,0.8635221341318823,-1.3483240315624754,-4.230063707301389,-2.250754190020255,4.746520581158373,-0.3227725369721212,-0.2948851341770822,-0.6204687532256631,0.2983394905955022,0.1883525085799834,0.9819127656141594,0.0029482200705638,0.0172147338824539
-0.0885294117647058,0.3490000069141388,0.2845344129554656,0.1943744939271255,-0.081914979757085,19.724696356275302,0.0889082924718882,-0.0737474015423647,0.8892470833581535,-0.0004434688859563,-0.000840461843948,0.0002329776252801,0.8117650127121312,-1.3402836638366895,-3.900896709940211,-2.6154047113574914,4.715261182321711,-2.6032119949445147,-0.2345807748103914,-0.5039799514449077,0.1885497451944631,0.7990159159488524,-0.6013065581379632,-0.0007279998160236,0.0018207550841583
-0.1008643724696356,0.3210000097751617,0.2174444444444445,0.4060020202020202,-0.310250505050505,17.57777777777778,0.2658538847382639,0.0305097189997928,0.9976969418326972,0.0646375688034784,0.0425852999579163,-0.0003873914169395,0.7439864895560525,-1.258749421554188,-4.086889964402324,-2.5107635677039783,4.756929616253785,-0.6383373371225708,-0.3317875954237851,-0.5518185846733324,0.2032562341804456,0.0906198371088866,0.9956729196538828,-0.014491768940493,0.0131416885859586
-0.0774898785425101,0.0570000000298023,-0.0303728813559322,0.1135317796610169,-0.0093580508474576,15.764830508474576,-0.0001070951601669,-9.416391300310476e-05,0.0002323454471649,-7.474948138030207e-05,0.000155580298519,-1.6893178305316403e-05,0.9761285087314704,-1.9903077289847704,-4.126759030051151,-1.727812700214194,4.717323079957801,-2.1376028201621646,-0.0980767931599738,-0.4558149179033303,0.5276311692797532,-0.6979972299630359,0.716088858701415,0.0019261486578231,0.0035892444272067
-0.0904604462474645,0.3370000123977661,0.2637616161616161,0.2287373737373737,-0.1988686868686869,20.0020202020202,0.1586080426275171,-0.151106885878981,0.8400079038164253,-0.0320176472214062,0.0475838527648026,0.0018603999522087,0.5649158669240547,-1.530479899365921,-3.8822295574226766,-2.427071548790478,4.705929382401283,-0.8087729131279863,-0.3170332531736354,-0.4098082843452993,0.2584508584906356,0.0952174587081177,0.9954102046561965,0.0078399709141295,0.0014714314722993
-0.0537845528455284,0.2290000021457672,0.2109858299595141,-0.1798542510121457,-0.6100182186234817,17.058704453441294,0.5143991961975937,-0.1735696733771796,1.0001528650861626,-0.3894640979385953,-0.1524594235588589,0.0137262503830351,0.7059626528608655,-1.386578095986032,-4.180432810957132,-2.290262563304859,4.542797166808897,-0.367482348358301,-0.378889647331315,-0.5289428088105159,0.3080076751740355,0.2420945256224528,0.9659829758680784,0.0468632890991319,-0.0688680629754959
-0.0491510638297872,0.4180000126361847,0.3560750507099391,0.2688336713995943,0.6493062880324544,18.547667342799187,0.6198783804361843,-0.0388332526204105,0.94432107888104,-0.00620749526146,0.0023062761088666,-0.0036615759121212,0.5962497331428721,-1.3213564952731742,-4.306369492296756,-2.22014263531926,4.714493249541122,-2.9675948559177683,-0.4754828186837945,-0.5339039013424461,0.3173921008652896,0.84113713887352,-0.5408131164662978,-0.0006023062441093,-0.0028365626650187
-0.0464755102040816,0.1220000013709068,0.0722530364372469,0.3104574898785425,-0.0408340080971659,17.28744939271255,0.2672264734695153,-0.1134947871788983,0.8833096603171338,0.0514042031005428,0.0318913157585963,-0.0002702041606122,0.587287970339721,-1.4744871592734952,-3.9680705302157375,-2.406212051184068,4.750980643608309,-1.2740566709854422,-0.3425162473188238,-0.446181711819973,0.2671708012610553,-0.1477880091802311,0.9888700379533806,-0.0140964286533836,0.0085202350765692
-0.0448571428571428,0.3619999885559082,0.2904137931034483,0.1879026369168356,0.6168762677484787,17.809330628803245,0.548330059646294,-0.07587858878968,0.9757985366664336,-0.0778695290424526,-0.021632126136324,-0.0014657750297058,0.6255188800137619,-1.2336538282170484,-4.191564799805925,-2.4166769729878435,4.679081055020222,-3.191230842334877,-0.4373645621671154,-0.5279700050610316,0.2181801009190251,0.9027008399760263,-0.4297920802181197,-0.0134073605007184,-0.0135982735989271
-0.0481237322515213,0.2790000140666961,0.2241522198731501,0.4933213530655391,0.0702050739957716,16.078224101479915,0.3791703290511368,0.1196507903766358,0.9473011967503988,-0.0127249455345097,0.000224320042746,0.0005434348169397,0.9106222742707736,-1.3822790062968071,-4.192454639499334,-2.2727389286791837,4.713465758156323,-2.676404447496507,-0.2535483324565544,-0.6121448389319486,0.305619312170696,0.8473881285235947,-0.5309626036668177,-0.0018219109502794,-0.002736032685958
-0.0481237322515213,0.2790000140666961,0.2347910750507099,-0.2382129817444219,-0.3125659229208924,16.975659229208926,0.1100648029800889,0.1806075848987751,0.055517800698595,-0.0066364314606928,0.0027302112660372,-0.0008742057561225,0.9249952487481292,-1.9518946498663023,-4.177983970719467,-1.722530331134712,4.719492660816495,-2.665650234481516,-0.1334773236791212,-0.4665435457084532,0.5447539817730747,0.8473979280638163,-0.5309583088930916,-5.4042466325660224e-05,-0.0001325967219299
-0.0602677484787018,0.1230000033974647,0.0602368421052631,0.7369919028340081,-0.2377732793522266,13.852226720647772,0.7053272418700616,0.2645984166317434,0.9326629965213628,-0.0419133981583074,0.2214287817449616,0.0075318167125769,0.8005502079179895,-1.1328545161070975,-4.871528450776691,-1.7456583770599816,4.736647594312907,-1.6605543982752984,-0.49280581807318,-0.7600643734941598,0.4516474416381434,-0.4309956369250409,0.90078054579646,0.0089432919806125,0.0490790323395779
-0.0480020533880903,0.3199999928474426,0.2671034482758621,0.2154158215010142,0.078050709939148,19.09330628803245,0.0667574986865432,-0.071697358296567,0.9250505729026356,-0.0124289962303374,0.0060882803024794,-9.777365575933392e-05,0.8230166819709793,-1.3046504819097626,-3.9356975579600304,-2.60289469693487,4.71258526061176,-2.8899952680807197,-0.2414866650503499,-0.5192865948164439,0.182647565527088,0.8794257926167146,-0.4760089233729225,-0.0005930836328293,-0.0049165724639726
-0.0548742393509127,0.1800000071525573,0.1095510638297872,0.6394617021276595,0.1997553191489361,15.472340425531916,0.7444856939176238,-0.0264372137527666,0.9630625250567214,-0.014714664799659,-0.0297361684633375,0.0006924418590504,0.5880757232929797,-1.1100554819211144,-4.511133653559583,-2.2446114055948096,4.703288014391635,-2.1730790195682945,-0.5810456917006919,-0.5955152829910847,0.2667183450244842,-0.5631282471595926,0.8263095397898491,0.0072432389745409,-0.0062050362028419
-0.0491072874493927,0.3899999856948852,0.3734624746450304,0.2122981744421906,-0.1416713995943204,21.2210953346856,0.1379211404000651,-0.1378293084144023,0.8221768175556852,-0.03574722990584,-0.0197704026099948,0.0007801438703708,0.6316715517585708,-1.4714214758155764,-3.844341482642214,-2.5368508035192754,4.68818605357203,-1.785905396215704,-0.2860129792356587,-0.4253366935930194,0.2253073866632115,-0.4138960757918096,0.91021144124122,0.0136796397026666,-0.002744710916827
-0.0687631578947368,0.1340000033378601,0.0839249492900608,-0.0309168356997971,-0.3266673427991887,16.711967545638945,0.4186407037604783,-0.1308499299537059,0.9260877769966454,0.0519670914325229,-0.0099373874367026,-0.0015145459120961,0.560334326227103,-1.2621166749925576,-4.039964830657773,-2.555731004437291,4.736679891543746,0.4887491129716559,-0.4080035141829786,-0.4683907929709668,0.1875028623226448,0.678709899436146,0.7343257822806647,-0.0048935835298838,0.0084804398891786
-0.0682282828282828,0.1049999967217445,0.056182555780933,0.3830405679513184,-0.5309553752535497,14.286004056795132,0.6132229993232092,0.1699505203787724,1.065336360299412,0.0251501370764437,0.0132881666993264,0.0003296663739692,0.7169052194388352,-0.9793289006242666,-4.741747008859507,-2.12708920832523,4.725103936379145,-0.6855884306598975,-0.5745179882881366,-0.73463374376297,0.2734425527933403,0.081250865987179,0.996682312740032,-0.0006730760421248,0.0038516503306763
-0.0666801619433198,0.1040000021457672,0.0240857142857142,0.2646204081632653,0.3000632653061225,15.375510204081632,0.5354110607468534,-0.0973976391555985,0.9709961581726694,-0.0778391449556404,-0.0144895214774714,-0.0018963605065954,0.6311906144935258,-1.335279811503219,-4.141651598288089,-2.365151491087957,4.68371952796469,-2.863193403777218,-0.40219174088264,-0.507408684309648,0.2576565144013385,0.8219450119806796,-0.5692734994450394,-0.013441698109655,-0.0104442691245135
-0.0678722109533468,0.101000003516674,0.0402053388090349,-0.0004250513347022,-0.1961745379876796,15.681724845995891,0.2090684499651778,-0.0221390688938486,0.9460839069709313,0.0061751030639258,0.0308887365303875,0.0007558498444749,0.9679143453280784,-1.381273572310385,-4.03351517281738,-2.429536697305855,4.732242036893872,-0.6929816567461616,-0.1802559342288873,-0.577090527365095,0.2479552275805258,-0.0482271251400638,0.9987985002186752,-0.0012318487546848,0.0082952418556777
-0.0678722109533468,0.101000003516674,0.0199796334012219,0.117091649694501,0.150847250509165,14.515274949083503,0.0482493393201795,0.2185229084003576,0.1063681452090033,-0.0028378322868819,0.0146599624390271,-0.0009963375760336,0.940303169418498,-1.9285082228681436,-4.168558900565091,-1.7550818491979887,4.720468108377243,-0.7244616719819292,-0.1322584958887391,-0.4764035814527096,0.5316121140589782,-0.0482189753329923,0.998836473146427,-2.2509206627976144e-05,0.0004165201490115
-0.0607955465587044,0.3260000050067901,0.2692408906882591,0.279732793522267,-0.0341336032388663,17.941295546558706,0.4905246505721649,0.0569761114227162,0.7589207001147777,-0.0064190467277728,0.0236832085350725,0.0016547978906531,0.9797831608457604,-1.6753963972031776,-4.109829341834374,-2.046244127344019,4.729032923818117,-3.4610952793936094,-0.1499481476571878,-0.5388997693052177,0.408446180223212,0.9910179953343472,-0.133212012649789,0.0092112592116058,-0.0071390923753622
-0.0854449244060475,0.0790000036358833,-0.0082903885480572,0.0504192229038854,-0.0292903885480572,15.973415132924336,-1.908652918280705e-05,6.352030795200478e-06,7.353126964132845e-07,7.928861668217973e-06,2.0804364859009964e-05,4.533200393167515e-05,0.9240914725818516,-1.9866493161017968,-4.118279214285634,-1.7477771156683346,4.719634275494909,-2.954520473396945,-0.1224720863994889,-0.4516444102630537,0.5226337192980058,0.914838167299766,-0.4038206608870766,1.544527742222219e-06,-6.008576066071778e-06
-0.0724818763326226,0.0759999975562095,-0.0008295218295218,0.0699750519750519,-0.0429064449064449,15.966735966735968,0.0002854958962087,7.136710718166366e-05,-0.0003754527450585,0.0003858569508477,-0.0004051395298019,3.2846304156135394e-05,0.9244511598361008,-1.98733961209628,-4.120276563132875,-1.7451348616942222,4.719636033825468,-2.4197436302248687,-0.1222607922931966,-0.4515950800599279,0.5239798130463662,0.7757395524492878,-0.6310532003827006,-1.8758385791692524e-06,1.997901147178813e-05
-0.0743967611336032,0.1220000013709068,0.012,0.0348699186991869,0.4926321138211381,14.17479674796748,0.999593949976193,0.1861918808446289,0.756336114740198,0.0009109405385282,-0.0295414607838587,-0.003503209701593,0.8715639751616532,-1.270114629532269,-4.565771162025327,-2.0276220898364907,4.716245915831589,-3.031713151441903,-0.3769521611644242,-0.7137210461182323,0.4022346330064583,0.920219980725428,-0.3913599711244668,-0.0026689954282459,0.004509708076068
-0.0682874493927125,0.3179999887943268,0.2089048582995951,0.8015971659919029,0.3959028340080971,16.224696356275302,0.4846374165929791,0.1173604155611904,1.1050862508055237,-0.0593368371481505,-0.0202442316905747,0.0001328004107508,0.7135310981437745,-1.0104795893040146,-4.772071139532545,-2.052241646122832,4.671827491961028,-2.4271920319619045,-0.5828355780014625,-0.7303032566178665,0.3173228628511129,0.7085967002368649,-0.7051733630871483,-0.022041668334923,-0.0104690639081558
-0.0846206896551724,0.3389999866485595,0.2608414634146341,0.2182418699186992,-0.2426890243902438,19.054878048780488,0.1576465546852636,-0.0631724495465981,0.8938671299697609,0.0769302049448444,0.0690287620696293,0.0012167106492426,0.7440157327952424,-1.4483151659347344,-3.941544658284847,-2.4473485216908637,4.756104960674193,-0.548718183597475,-0.2630110065324035,-0.4896693011003781,0.2471843406679184,0.1355557066759443,0.9905267275445828,-0.0061981313932832,0.0190101177053056
-0.0869209401709401,0.1720000058412552,0.114491902834008,0.0445850202429149,-0.1990121457489879,16.69838056680162,0.2325005847286265,-0.0454904199374533,0.9145510463940932,-0.0105210005440785,0.0202546061391966,0.0063006479017566,0.8953178219708354,-1.500596210429084,-4.041341632001313,-2.299550403263884,4.721062737437878,-1.177065226579203,-0.2099900419412836,-0.5456723592541961,0.3069257315414154,-0.2510202992179616,0.9679638715649423,0.0019431456603931,0.0053390717357283
-0.0427209775967413,0.1729999929666519,0.1546356275303643,0.2212145748987854,-0.949336032388664,14.15587044534413,-0.0308765353635253,0.0039969855802375,0.2337910226326191,-0.0090588493978797,0.0244566061953349,0.0058932094216738,1.3841849444848806,-1.9193894412247237,-4.25801254284044,-1.665799933685461,4.73193369413677,-2.1473572064616016,0.083484421308371,-0.4989933876494164,0.5814066636055587,0.8312092480147898,-0.555905506437124,0.003612469832756,-0.0066626868568933
-0.0696630434782608,0.4939999878406524,0.4303036437246963,0.3561578947368421,-0.7320506072874493,16.321862348178136,0.7072117272378595,0.3724522609716983,0.969600125741611,-0.0097891279573913,-0.041550354781877,-0.0016755687586195,0.7144932574347446,-1.156833774271637,-4.6404711833366985,-2.066956550282501,4.7003903890910905,-0.2977089233834812,-0.524520236229607,-0.6827105877370487,0.3565300448009601,0.2732104255482253,0.961892210037602,0.000171033400709,-0.0104240606353252
-0.0610753564154786,0.3350000083446502,0.2848016194331983,-0.1933967611336032,-0.0430546558704453,20.105263157894736,0.1928022212771984,-0.1575223673863868,0.8395122897529057,-0.0181675151821861,0.0172259523900232,-0.0004532645993331,0.5544400395531404,-1.4518275106033416,-3.890284626590096,-2.4957661438461223,4.711506645689126,1.4448199322831776,-0.3343941394375403,-0.4157163424771807,0.2288596214734108,0.9415308482009872,0.3368335286615349,0.0065708820522397,-0.0040373380379826
-0.0467125506072874,0.671999990940094,0.6178949494949495,0.1777414141414141,-0.2057595959595959,20.20404040404041,0.2865718478791086,0.1236043651510281,0.8992129572799481,-0.0157647367569615,0.0079839208507167,-0.0009705444004401,0.8394000437524584,-1.4690262541960053,-4.0024421951987526,-2.352070168370988,4.707542284570559,-0.931366589569834,-0.2352120026795551,-0.5223258009462646,0.2653137512881346,-0.1028941802605234,0.9945743589690236,0.0133896583220874,0.0073773677460849
-0.04147261663286,0.1749999970197677,0.1310649087221095,-0.226103448275862,0.3413022312373225,16.24949290060852,0.5964506625500784,-0.0892897728650287,0.9644960450455802,0.00869913750238,-0.0028385375392042,-0.0020169183815295,0.5796169298294833,-1.2822796490733557,-4.178345736335306,-2.3926057950932047,4.71962028391221,-3.791312423466075,-0.4475790800840327,-0.5031933025825338,0.241373026679302,0.9860047513041004,-0.1667125715022154,0.0005516171433304,0.0010111414275791
-0.048077079107505,0.4329999983310699,0.3836174089068825,0.9609797570850204,-0.31232995951417,16.277327935222672,0.5789214422216031,0.130409447960426,1.1226518051855856,-0.0810549193115039,-0.0542088131163525,-0.0010153108371991,0.6088063013457093,-1.215836333585843,-4.42679045267916,-2.2086143071728643,4.663465141767432,-1.230719392464912,-0.5256803735547703,-0.5721584834791871,0.3021390781801963,-0.136825362378769,0.9902084830560184,0.0239769083076356,-0.0113207501150019
-0.049340770791075,0.1280000060796737,0.1041399594320486,0.1110121703853955,-0.3317931034482759,15.348884381338742,0.4433171894596311,0.0818466624852242,0.9732415074333908,0.0081032020044613,-0.0282397972965707,0.0010445350501991,0.8546722865007954,-1.327312200270525,-4.18937679526772,-2.348219157713096,4.711120974945007,-0.8768392278774619,-0.2951917381122194,-0.6059026660106729,0.2751839862301432,-0.0833613591582248,0.9964943516085162,-0.0018013892188794,-0.0064273304178456
-0.049340770791075,0.1280000060796737,0.0835060728744939,-0.1071437246963562,0.2674777327935222,15.22672064777328,0.1582173408343791,0.1923005780011803,0.0662800623860691,-0.0015515726804566,-0.0031774844649139,-0.001173513366307,0.917993981225288,-1.940526150777751,-4.156598132631557,-1.7558692025645986,4.719329045369075,-0.8171984404795644,-0.1384372027357097,-0.4681230448638862,0.5287116195267512,-0.0833604616011202,0.9965193809767966,2.6729026464879286e-06,-0.0001553149153392
-0.0568722109533468,0.1059999987483024,0.0513026584867075,0.3287464212678936,-0.3229918200408997,13.957055214723926,0.6574923826451088,0.2570082811932147,0.9765017628579946,0.0547043967953554,-0.0225257626102326,-0.0006081438096995,0.8131084757836075,-1.1819580386376138,-4.39245992886752,-2.300856420431723,4.729470141826232,-1.1467149951897728,-0.39290020537157,-0.6710706664009328,0.2633275245382985,-0.1964234789882944,0.980431556945442,-0.0107968111811986,-0.0057347288911358
-0.0568722109533468,0.1059999987483024,0.0496977687626774,-0.3152576064908722,0.246105476673428,15.413793103448276,0.2074733660951619,0.2106420631066797,0.0443843628099253,0.0074324982220914,-0.0001181496747589,0.0006301876831351,0.9144159560271258,-1.923128045835469,-4.102718401632251,-1.8273359554021045,4.71982613731833,-1.048841763923798,-0.1400640731560289,-0.4679371963045418,0.4922823243402322,-0.1964206683768704,0.9805195811554094,-0.000187701839814,-4.593234646838468e-05
-0.0883948598130841,0.061999998986721,-0.019493927125506,0.1203097165991902,-0.0165647773279352,15.846153846153848,-6.854971888960606e-05,-0.0001759587490292,-6.653704582839496e-05,-0.000270134643278,0.0001716897980439,0.0001560502861928,0.9241411602690152,-1.979954957275734,-4.090004455705404,-1.7827933059424002,4.719605010530727,-2.0098008084984524,-0.1223605270931112,-0.4515318617767651,0.5046986653978526,-0.6310292920361646,0.7757590133168919,-1.2850697054027108e-05,-1.5639441775801315e-05
-0.072892494929006,0.3970000147819519,0.2956511156186612,0.8345314401622718,-0.1569614604462474,14.827586206896552,0.7245275076853717,0.3893221898671485,0.978622335806639,0.017125244374403,-0.0157241576672547,-0.002089618272272,0.7125231733670341,-1.1701805919336037,-4.575767249171197,-2.116183551762131,4.719790235252458,-1.3566154623398057,-0.5068969851091474,-0.6678560440245314,0.3325480600067133,-0.2492338258765532,0.9684311141832364,-0.0026228116224491,-0.0037982409917248
-0.0578441295546558,0.1679999977350235,0.1233272727272727,0.2508222222222223,-0.0149131313131312,17.444444444444443,0.080392102101303,-0.0800925852426123,0.9139600596671604,0.0130176328287617,1.701182650691868e-05,-0.000156730771127,0.8558792151585974,-1.2767098731563429,-3.923634790170072,-2.656048098073901,4.721043251499985,-2.3754349573641407,-0.221290629289367,-0.5259052566807679,0.169273497555593,0.7405575275421142,-0.6719855130320848,0.0024759151133228,0.0017503627585341
-0.0685910931174089,0.1679999977350235,0.1177975708502024,-0.0354736842105263,-0.0775748987854251,18.925101214574894,0.1524116931198034,-0.2387404364263434,0.7277881323876852,-0.0010505727870114,0.0150633401488078,0.0002754581322394,0.5216853788145158,-1.2530202658393037,-3.779579467618997,-2.806707519547656,4.72087550163269,0.7883780598640442,-0.316943967330311,-0.3910927545083196,0.1218684518536334,0.7924805365593327,0.6098539899235312,0.0061630726186747,0.0037066361933818
-0.0860750507099391,0.7889999747276306,0.7006080508474577,0.102614406779661,-0.0744343220338983,22.02754237288136,0.1412880470297337,0.0358560614942654,0.8178167290241611,-0.0124518720845152,0.0088702592584546,-0.0002204992888374,0.7538223772988482,-1.6438356018517284,-4.015689626083535,-2.182007866252449,4.715981311717276,-0.8567410939104657,-0.2576745937625735,-0.4818577004943863,0.3546190742655831,-0.0224459872115403,0.9997316549642612,0.0045216848582455,0.0033116537926647
-0.0769107142857142,0.0879999995231628,0.0109675456389452,0.0711724137931034,-0.0118316430020283,16.01217038539554,0.0002560039557586,5.0310548962705146e-05,-0.0003696726667524,0.0004222083389122,-0.0003884274861541,7.31904011441582e-05,0.9239153610523526,-2.002478043396539,-4.270798942380212,-1.5794714943118926,4.71971579642615,-2.6117114050904697,-0.1227848245393915,-0.4519103740702778,0.6142599022896247,0.832219561988877,-0.5544462121766189,-2.641330663730996e-06,2.235699607489399e-05
-0.0720137299771167,0.0879999995231628,0.0029517819706498,0.0543626834381551,-0.0075052410901467,15.9916142557652,-0.0007072949012165,-0.0003973729493828,0.0004245098193841,-0.0011602244732655,0.0008690830626533,0.0001583915128651,0.923715894827053,-2.0022764509064945,-4.274647686716396,-1.5757401857471915,4.719745558012956,1.7563386670698409,-0.1229646932841347,-0.4519830316742511,0.6163795200533837,0.932416227253728,0.3613861643668241,2.3884266206100363e-05,-2.586186333486116e-06
-0.0841690721649484,0.382999986410141,0.3076117886178862,0.1268902439024391,-0.5447560975609755,18.21951219512195,0.3097820245775877,-0.0180174096904111,1.0129338138742154,-0.0823733449093709,-0.0024921029518328,-0.0003201589603128,0.7370484680906544,-1.2622202451571245,-4.138053832984552,-2.4241782094451763,4.680785657913704,-0.3118302556504695,-0.3558645782674231,-0.5558463131509176,0.2185332927913442,0.2544615200258852,0.9668017634289052,0.0210939378059295,-0.00715214506263
-0.0684532520325203,0.5400000214576721,0.4833414141414142,0.5149636363636363,-0.069169696969697,21.387878787878787,0.261883349347938,-0.1417305159298102,0.8832303968511239,0.0215096855482563,0.0239630215031598,-0.0019107337507,0.5649176936559003,-1.2214651059139192,-3.999082086543844,-2.6189328902476525,4.7438008221712975,-1.296008264651954,-0.3947720879256123,-0.4650495717621813,0.1556684245214318,-0.148050540715757,0.9888612259518016,-0.0098628526205441,0.011441617750685
-0.0690567951318458,0.2370000034570694,0.163414376321353,0.3463699788583509,-0.0610211416490485,16.095137420718817,0.2720818384983902,0.0775068129123654,0.958256080592032,0.0048396719555288,0.0166239042431585,-0.0006080199742264,0.9540551598429932,-1.392434520272079,-4.12925258801805,-2.3272463535962635,4.724973805611028,-2.19580374667452,-0.2102655839592407,-0.602266547417792,0.287861333273934,0.7121393996867771,-0.7020255409133863,0.0032256200933488,-0.0023678040496678
-0.0690567951318458,0.2370000034570694,0.1410040485829959,-0.2481295546558704,-0.0031983805668016,15.977732793522268,0.0739061350837025,0.2054770419756343,0.0771961390589863,-0.0030841055095466,0.0076062617040941,-0.0011646638001942,0.933398399396464,-1.945463846848557,-4.195240277510423,-1.711744182301915,4.71999375250658,-2.2202447636998213,-0.1323759140303501,-0.4712279960211472,0.5523652538114231,0.7121388761379458,-0.7020385529589557,0.0001156178999632,-0.000137098165365
-0.0702530364372469,0.0700000002980232,-0.0006194690265486,0.0494402654867256,-0.0240707964601769,15.960176991150442,-7.217267442573944e-05,-2.72199371391456e-05,-4.487617788043028e-05,-3.3030837178407453e-06,2.4906685670945515e-06,6.814227078595384e-05,0.924241579475656,-1.972638711487836,-4.065651193129278,-1.8144259811729568,4.719555998270491,-1.1549880148685847,-0.1222804812302367,-0.4515195684754743,0.4888544086597662,-0.2528430919731613,0.967507299728098,1.679281670140266e-07,3.142903867298834e-06
-0.0695141700404858,0.3210000097751617,0.2459142857142857,-0.2423265306122449,0.3983510204081633,19.1265306122449,0.3129984284660671,-0.0975765015107049,0.8808327416638791,0.1600121426801656,0.0612661113861153,0.0016166971456429,0.4867764010113112,-1.4641049137185254,-4.040118431071845,-2.3157774186822,4.798661818796274,-3.2201787285200614,-0.4093089787327513,-0.4278850143053094,0.2859170542991891,0.876488120458564,-0.4793831387952882,0.041008109876848,0.0084730369999603
-0.0905085106382978,0.0630000010132789,-0.0314908722109533,0.0245557809330628,-0.0283225152129817,15.713995943204868,4.368510237302406e-06,8.975739787266443e-06,-1.3423981563138602e-05,1.5236023834142538e-05,-1.1910923192658107e-05,0.0001599271165095,0.9858539307576888,-1.990672226606869,-4.264788215590781,-1.5879322868301835,4.721210034817275,0.9055897629768804,-0.0973714538387062,-0.4631464580493331,0.6059547119885381,0.677642958280281,0.7353759531317086,0.0047169619562901,-5.787283137064221e-06
-0.0855050709939148,0.2829999923706054,0.1848056680161943,0.6854412955465586,0.1858421052631578,16.445344129554655,0.6894926947811597,0.0042543391271695,0.9734656037952072,-0.0770430846026837,-0.0213705143849483,0.0003496332741896,0.6483321250208959,-1.2794488566146356,-4.394107925747088,-2.180927963188299,4.686261380732301,-2.151809028151748,-0.4814371928150354,-0.5792451395920897,0.3304002675932911,-0.5789054617708028,0.8152227419831974,0.0150774428903724,-0.001201759941558
-0.0756396761133603,0.2029999941587448,0.1208522267206477,0.3379089068825911,0.063497975708502,15.694331983805668,0.4164995028472856,0.0794834209131401,0.9108547301140596,-0.0067482215772089,0.0340322267047922,-0.0007449325262197,0.9471491909461466,-1.5128123800352091,-4.199521858199888,-2.1243367777073394,4.7285689448538095,-3.301783436571739,-0.2116001371429999,-0.5958336292490786,0.3773773305630877,0.9737880016386752,-0.2272574913043242,0.0076033250100699,-0.0052454146841231
-0.0684555555555555,0.0719999969005584,0.0026443965517241,0.0534676724137931,-0.0097737068965517,15.995689655172416,-5.050340416872748e-05,-9.990698728788536e-05,-0.0001813667745298,0.0002383014085925,-0.0001800745507596,1.5117808093450827e-05,0.9234870160961972,-2.00177222544418,-4.311547626709116,-1.5393810102099146,4.719728218070392,-1.2789522819082693,-0.1231155031328571,-0.4520157945567163,0.6373032404687898,-0.3111307497682242,0.950367114795693,-1.6999114123695468e-06,3.704034701087757e-06
-0.0662339055793991,0.31700000166893,0.2685485829959514,0.6083400809716599,-0.6711801619433199,15.526315789473683,0.556134563978292,0.2689094036246331,1.1239757062781437,-0.0197239521247063,-0.0032376610081419,-0.0006290247058366,0.6871407123712393,-1.1042206820870442,-4.626951981169975,-2.113641793224972,4.707657276377504,-0.6768759675944943,-0.5473566654360729,-0.6740144220923605,0.3143471232370326,0.100455965756284,0.9949192773957968,0.0063621085632011,-0.0009331023895562
-0.0620993914807302,0.2630000114440918,0.1876417004048582,0.1813137651821862,0.1674878542510122,14.969635627530364,0.6851600452942244,0.3780253198976708,0.9054437810331422,0.0225082511658388,-0.1025733612329983,-0.0018390337180526,0.8034691864903639,-1.284270057061584,-4.348343410955267,-2.267526198291581,4.686327219974657,-3.1146004999805634,-0.3812707567263229,-0.639060653534978,0.3065517766906424,0.9228000288550188,-0.3841928313618247,-0.0228965765163151,0.0156466258851894
-0.0578979591836734,0.0509999990463256,-0.0015817409766454,0.0493078556263269,-0.0071592356687898,15.991507430997876,-6.996063546808366e-05,-6.964691869844665e-05,-0.0001129715517503,2.4742112361957176e-05,-1.9110832184744385e-05,3.778099073861963e-05,0.9241097621350784,-1.9853012866235715,-4.112060413239108,-1.7553488753364217,4.719613904406311,-1.1554676137859357,-0.1224448541515445,-0.4516161835876999,0.5187191339308542,-0.2528363110659735,0.9675090691339692,4.849937349138953e-06,-2.069846682203036e-06
-0.047011135857461,0.061999998986721,0.0155436105476673,0.0563610547667342,-0.0133204868154158,16.0,-5.369854774887615e-06,3.497717188032763e-05,-0.0001755146023779,5.1311415933119256e-05,-3.914916228117912e-05,-2.373594374683255e-05,0.924169214332805,-1.9798446668784595,-4.09004035586034,-1.7828464720814154,4.719587614279973,-1.8129366389422443,-0.1223805504293761,-0.4515637705824196,0.5046792344679455,-0.5517490421540838,0.8340101851411088,-3.574218689868323e-06,-3.1621780045101466e-06
-0.0519350912778904,0.3659999966621399,0.3086,-0.6371829787234042,0.2940936170212765,14.725531914893615,0.6778311679422014,0.4216770038920497,0.9666350442132344,0.0159357818302958,0.0008291920741056,0.3440171614553834,0.74888494407877,-1.138801018716601,-4.534065930386807,-2.1835531054953354,4.723379343114001,-4.290469654226783,-0.476664155911892,-0.6813472948175796,0.287374382846533,0.985272228717804,0.1683740895479283,-8.37864515016284e-05,0.0031081155159243
-0.0348377281947261,0.289000004529953,0.2465131845841785,0.229340770791075,-0.0604929006085192,20.28397565922921,0.1377790228708272,-0.2363949740032088,0.7168477284681944,-0.0054731526121213,0.0170092661543626,-0.0011435671252697,0.5207706903830986,-1.211292677643825,-3.7704598966525,-2.8543986345613352,4.716784010068882,-1.6687331230866604,-0.3147887546440651,-0.3886689460906247,0.1040078875501064,-0.3081551434181283,0.951299795393528,0.0007283860245746,0.0082118617877001
-0.0627748478701825,0.3759999871253967,0.3511457489878543,0.393002024291498,-0.4366376518218623,18.92105263157895,0.437114631219854,-0.1152774455318531,0.9440702543837062,-0.0413411410927902,-0.0128246876559593,0.0003554427196499,0.6117042213195731,-1.331214885381321,-4.078386366608655,-2.43894360836604,4.69646149511762,-0.8131876299363959,-0.3921233308218751,-0.4884506018779538,0.2346541820780227,0.0695485470115173,0.9975202935427306,0.0090992168743947,-0.0045857276448881
0.0225877378435517,0.0689999982714653,0.089921875,0.0579910714285714,0.0092299107142857,16.957589285714285,-9.344906286200645e-06,-5.1709965638238425e-06,2.1236119849456472e-06,-1.2197840379455576e-05,8.568154227705482e-06,9.181738385602137e-06,0.9560889584411468,-1.9807483829059545,-4.124172212822097,-1.7467372203013498,4.719953575304577,-0.6063856309315808,-0.1097773278930357,-0.4579731140152684,0.5239557603906307,0.0029653116590842,0.9999954395794444,0.0003388071933321,0.0004320844866145
0.0238218623481781,0.6819999814033508,0.7033259109311741,0.0007651821862348,0.067661943319838,21.279352226720647,0.1618058688322463,0.0622062785845424,0.897831743913769,0.0120550489844854,0.0333179768931751,-0.0011806547098878,0.8040513010160161,-1.6746316513272388,-4.013042584121951,-2.15635757918203,4.739279251832229,-2.555719973453344,-0.2215816341793006,-0.4857294973332872,0.3677175338210364,0.7813395043375039,-0.624003191587896,0.010551234115262,-0.0032712266493403
0.0479632653061224,0.3160000145435333,0.3403833671399595,0.454707910750507,0.5007423935091279,18.68559837728195,0.6493678535405245,-0.0438780055782981,0.9462437027022556,0.0163090272154245,0.0179673676439518,-0.0004021910773059,0.5743928951859233,-1.3895580946758228,-4.388483259305509,-2.069906572296376,4.729731889573846,-2.499353799788885,-0.4918831601345999,-0.5277914179387005,0.3990165906793931,-0.6844876558495342,0.728998083855511,-0.0057594253776999,0.0011917311865501
0.0415668016194332,0.1770000010728836,0.239248987854251,0.4475020242914979,-0.4266275303643725,16.5668016194332,0.756787851149671,-0.0494633498310168,0.960486840901665,0.0051652000597075,-0.0294610021573442,-0.0008410047686274,0.5729693054308292,-1.0561786264630346,-4.536044875619865,-2.276227915614236,4.713172095024634,-1.010904528217478,-0.6061490826640534,-0.5987609646580963,0.2385153308480616,-0.0096766208845232,0.999919035656732,-0.0021309117010798,-0.0076984952690328
0.0420506072874493,0.4180000126361847,0.4727246963562753,0.3136275303643725,-0.4332591093117409,20.615384615384617,0.3766270923269689,-0.1266347999421692,0.9262438578445776,-0.0442595590662919,-0.0158371452880371,0.0009006057301216,0.6157959077642997,-1.34185728640915,-4.037643044101082,-2.469575561771505,4.693035328436477,-0.8755925598040362,-0.3750046659939685,-0.4794049288941781,0.2273597987104765,0.0363056429017048,0.9992645305660572,0.0103585697005423,-0.0055022800359158
0.045746963562753,0.1720000058412552,0.2204595141700405,0.132744939271255,-0.1209757085020243,17.55263157894737,0.3274226101478863,0.009181691642757,0.9276063126614196,0.0689406691204957,0.0214885791905085,-0.0007426263654511,0.8279500963234225,-1.452061469321139,-4.100254462315486,-2.2998710916968936,4.74079696852186,-1.2368537200715457,-0.2672778870231709,-0.5559848860690468,0.3077687243007214,-0.2473035128674043,0.968857145743814,-0.0089005754889954,0.0060256207517352
-0.0239756592292089,0.1190000027418136,0.1065821501014198,0.4360101419878296,-0.3297606490872211,14.86815415821501,0.7101186566340215,0.1171111313756838,0.9986402639443768,0.0273948859162504,-0.0179285515558214,-0.0009146635720859,0.6953718751729381,-0.99926102837276,-4.611834861685732,-2.2584443798383527,4.725401461487126,-1.0960318314162385,-0.5558499918748109,-0.6929957401196323,0.2285509994045716,-0.1132285378374627,0.9935253822295708,-0.0075643961468964,-0.0048473160966577
-0.0089782608695652,0.0700000002980232,0.0533663967611336,0.0541315789473684,-0.0026497975708502,16.39271255060729,-4.329656376964997e-05,-2.058295016000773e-05,-3.681674326879397e-05,2.4298378160104342e-05,-1.838027867143399e-05,2.97108627148854e-05,0.923761032853532,-2.000636299891024,-4.222577776503466,-1.629489074630772,4.7197222516604285,-1.155459310227761,-0.1228421272838164,-0.4518686330873473,0.5861499712534761,-0.2522911416132923,0.9676513675494716,-1.010452747532566e-06,5.189774917829321e-06
0.0119705882352941,0.3210000097751617,0.3465566801619433,0.1824595141700404,-0.7476578947368422,17.18016194331984,0.5735563917732509,0.166580836891609,1.0298697643173689,0.034118996403095,0.0461038867444871,-0.0013432974652772,0.7328998799990063,-1.0980945969291305,-4.47274505175077,-2.272804018253253,4.747381896625163,-0.2751804574406659,-0.4754515617241261,-0.6680753551996671,0.2398207805568148,0.2747199494949719,0.9613940882296698,-0.0040469842947367,0.0145385079519438
